;FLAVOR:RepRap
;TIME:459
;Filament used: 0.133475m
;Layer height: 0.2
;Generated with Cura_SteamEngine 2.6.2
M190 S60
M104 S210
M109 S210
G21 ;metric values
G90 ;absolute positioning
M82 ;set extruder to absolute mode
M107 ;start with the fan off
G28 X0 Y0 ;move X/Y to min endstops
G28 Z0 ;move Z to min endstops
G0 X1 Y0 Z0.15 F9000 ; Move in 1mm from edge and up [z] 0.15mm
G92 E0 ;zero the extruded length
G1 F200 E3 ;extrude 3mm of feed stock
G92 E0 ;zero the extruded length again
G1 F9000
M117 Printing...
G5
;LAYER_COUNT:50
;LAYER:0
M107
M205 X30
G0 F3000 X97.812 Y98.221 Z0.3
M205 X8
;TYPE:SKIRT
G1 F450 X98.442 Y97.604 E0.04096
G1 X99.16 Y97.022 E0.08389
G1 X99.922 Y96.519 E0.1263
G1 X100.834 Y96.036 E0.17423
G1 X101.393 Y95.784 E0.20271
G1 X101.691 Y95.685 E0.2173
G1 X102.663 Y95.395 E0.26441
G1 X103.261 Y95.258 E0.29291
G1 X103.567 Y95.219 E0.30723
G1 X104.573 Y95.124 E0.35417
G1 X105.488 Y95.127 E0.39667
G1 X106.501 Y95.229 E0.44396
G1 X107.106 Y95.33 E0.47245
G1 X107.416 Y95.414 E0.48737
G1 X108.393 Y95.715 E0.53485
G1 X109.24 Y96.07 E0.57751
G1 X110.129 Y96.549 E0.62441
G1 X110.649 Y96.874 E0.65289
G1 X110.897 Y97.065 E0.66743
G1 X111.683 Y97.715 E0.71481
G1 X112.129 Y98.136 E0.74329
G1 X112.333 Y98.371 E0.75775
G1 X112.974 Y99.158 E0.80489
G1 X113.33 Y99.657 E0.83337
G1 X113.483 Y99.926 E0.84774
G1 X113.967 Y100.839 E0.89574
G1 X114.303 Y101.646 E0.93634
G1 X114.438 Y102.08 E0.95745
G1 X114.557 Y102.542 E0.97961
G1 X114.761 Y103.547 E1.02724
G1 X114.845 Y104.175 E1.05667
G1 X114.884 Y104.769 E1.08432
G1 X114.869 Y105.566 E1.12135
G1 X114.77 Y106.517 E1.16576
G1 X114.586 Y107.416 E1.20838
G1 X114.285 Y108.393 E1.25586
G1 X114.067 Y108.966 E1.28434
G1 X113.929 Y109.243 E1.29871
G1 X113.447 Y110.136 E1.34585
G1 X113.121 Y110.656 E1.37435
G1 X112.896 Y110.944 E1.39133
G1 X112.186 Y111.782 E1.44234
G1 X111.557 Y112.396 E1.48317
G1 X110.84 Y112.977 E1.52604
G1 X110.079 Y113.481 E1.56843
G1 X109.159 Y113.968 E1.61678
G1 X108.599 Y114.219 E1.64528
G1 X108.257 Y114.331 E1.662
G1 X107.228 Y114.627 E1.71173
G1 X106.347 Y114.792 E1.75337
G1 X105.388 Y114.878 E1.79809
G1 X104.472 Y114.871 E1.84063
G1 X103.451 Y114.763 E1.88832
G1 X102.846 Y114.659 E1.91684
G1 X102.504 Y114.563 E1.93333
G1 X101.487 Y114.236 E1.98295
G1 X100.661 Y113.88 E2.02473
G1 X99.82 Y113.418 E2.0693
G1 X99.303 Y113.088 E2.09779
G1 X99.046 Y112.886 E2.11297
G1 X98.221 Y112.188 E2.16317
G1 X97.603 Y111.557 E2.20419
G1 X97.019 Y110.836 E2.24729
G1 X96.516 Y110.074 E2.28969
G1 X96.035 Y109.165 E2.33746
G1 X95.784 Y108.605 E2.36597
G1 X95.685 Y108.309 E2.38046
G1 X95.395 Y107.337 E2.42758
G1 X95.258 Y106.739 E2.45607
G1 X95.219 Y106.434 E2.47035
G1 X95.124 Y105.43 E2.5172
G1 X95.127 Y104.515 E2.5597
G1 X95.229 Y103.5 E2.60708
G1 X95.33 Y102.895 E2.63557
G1 X95.429 Y102.537 E2.65282
G1 X95.762 Y101.495 E2.70363
G1 X96.121 Y100.66 E2.74585
G1 X96.584 Y99.818 E2.79048
G1 X96.914 Y99.3 E2.81901
G1 X97.115 Y99.045 E2.83409
G1 X97.812 Y98.221 E2.88422
M205 X30
G0 F3000 X98.102 Y98.467
M205 X8
G1 F450 X98.681 Y97.899 E2.92189
G1 X99.399 Y97.317 E2.96482
G1 X100.099 Y96.855 E3.00378
G1 X101.011 Y96.372 E3.05171
G1 X101.8 Y96.049 E3.09131
G1 X102.772 Y95.759 E3.13842
G1 X103.603 Y95.597 E3.17775
G1 X104.609 Y95.502 E3.22468
G1 X105.45 Y95.505 E3.26375
G1 X106.463 Y95.607 E3.31103
G1 X107.304 Y95.777 E3.35089
G1 X108.281 Y96.078 E3.39837
G1 X109.06 Y96.404 E3.4376
G1 X109.949 Y96.883 E3.4845
G1 X110.654 Y97.358 E3.52398
G1 X111.44 Y98.008 E3.57136
G1 X112.038 Y98.611 E3.6108
G1 X112.679 Y99.398 E3.65795
G1 X113.148 Y100.104 E3.69732
G1 X113.632 Y101.017 E3.74531
G1 X113.941 Y101.759 E3.78265
G1 X114.076 Y102.193 E3.80376
G1 X114.184 Y102.618 E3.82413
G1 X114.388 Y103.623 E3.87176
G1 X114.466 Y104.2 E3.8988
G1 X114.505 Y104.794 E3.92645
G1 X114.491 Y105.526 E3.96046
G1 X114.392 Y106.477 E4.00487
G1 X114.223 Y107.304 E4.04407
G1 X113.922 Y108.281 E4.09156
G1 X113.594 Y109.063 E4.13095
G1 X113.112 Y109.956 E4.17808
G1 X112.798 Y110.453 E4.20539
G1 X112.606 Y110.698 E4.21984
G1 X111.896 Y111.536 E4.27086
G1 X111.318 Y112.101 E4.3084
G1 X110.601 Y112.682 E4.35127
G1 X109.901 Y113.145 E4.39025
G1 X108.981 Y113.632 E4.4386
G1 X108.443 Y113.871 E4.46594
G1 X108.152 Y113.966 E4.48016
G1 X107.123 Y114.262 E4.52989
G1 X106.313 Y114.414 E4.56817
G1 X105.354 Y114.5 E4.6129
G1 X104.512 Y114.493 E4.65201
G1 X103.491 Y114.385 E4.69969
G1 X102.911 Y114.284 E4.72704
G1 X102.621 Y114.201 E4.74105
G1 X101.604 Y113.874 E4.79067
G1 X100.844 Y113.547 E4.8291
G1 X100.003 Y113.085 E4.87367
G1 X99.291 Y112.596 E4.91379
G1 X98.466 Y111.898 E4.96398
G1 X97.898 Y111.317 E5.00172
G1 X97.314 Y110.596 E5.04482
G1 X96.852 Y109.896 E5.08377
G1 X96.371 Y108.987 E5.13154
G1 X96.049 Y108.2 E5.17104
G1 X95.759 Y107.228 E5.21815
G1 X95.597 Y106.398 E5.25743
G1 X95.502 Y105.394 E5.30427
G1 X95.505 Y104.553 E5.34333
G1 X95.607 Y103.538 E5.39072
G1 X95.705 Y102.958 E5.41804
G1 X95.79 Y102.653 E5.43274
G1 X96.123 Y101.611 E5.48355
G1 X96.454 Y100.843 E5.5224
G1 X96.917 Y100.001 E5.56703
G1 X97.405 Y99.291 E5.60705
G1 X98.102 Y98.467 E5.65717
M205 X30
G0 F3000 X98.392 Y98.712
M205 X8
G1 F450 X98.921 Y98.194 E5.69156
G1 X99.639 Y97.612 E5.73449
G1 X100.277 Y97.19 E5.77002
G1 X101.189 Y96.707 E5.81796
G1 X101.909 Y96.413 E5.85408
G1 X102.881 Y96.123 E5.90119
G1 X103.639 Y95.975 E5.93707
G1 X104.645 Y95.88 E5.984
G1 X105.412 Y95.883 E6.01963
G1 X106.425 Y95.985 E6.06692
G1 X107.192 Y96.14 E6.10326
G1 X108.169 Y96.441 E6.15075
G1 X108.88 Y96.739 E6.18655
G1 X109.769 Y97.218 E6.23346
G1 X110.412 Y97.651 E6.26946
G1 X111.198 Y98.301 E6.31684
G1 X111.744 Y98.85 E6.3528
G1 X112.385 Y99.637 E6.39995
G1 X112.812 Y100.282 E6.43588
G1 X113.296 Y101.195 E6.48387
G1 X113.578 Y101.872 E6.51794
G1 X113.713 Y102.306 E6.53905
G1 X113.812 Y102.693 E6.5576
G1 X114.016 Y103.698 E6.60523
G1 X114.087 Y104.225 E6.62993
G1 X114.126 Y104.819 E6.65758
G1 X114.113 Y105.487 E6.68862
G1 X114.014 Y106.438 E6.73303
G1 X113.86 Y107.192 E6.76877
G1 X113.559 Y108.169 E6.81626
G1 X113.26 Y108.882 E6.85217
G1 X112.778 Y109.775 E6.8993
G1 X112.316 Y110.452 E6.93737
G1 X111.606 Y111.29 E6.98839
G1 X111.079 Y111.806 E7.02264
G1 X110.362 Y112.387 E7.06551
G1 X109.723 Y112.809 E7.10108
G1 X108.803 Y113.296 E7.14943
G1 X108.047 Y113.601 E7.18729
G1 X107.018 Y113.897 E7.23702
G1 X106.279 Y114.035 E7.27194
G1 X105.32 Y114.121 E7.31666
G1 X104.551 Y114.115 E7.35238
G1 X103.53 Y114.007 E7.40007
G1 X102.737 Y113.839 E7.43772
G1 X101.72 Y113.512 E7.48734
G1 X101.027 Y113.214 E7.52238
G1 X100.186 Y112.752 E7.56695
G1 X99.537 Y112.306 E7.60352
G1 X98.712 Y111.608 E7.65372
G1 X98.194 Y111.078 E7.68814
G1 X97.61 Y110.357 E7.73124
G1 X97.188 Y109.718 E7.76681
G1 X96.707 Y108.809 E7.81457
G1 X96.413 Y108.091 E7.85061
G1 X96.123 Y107.119 E7.89772
G1 X95.976 Y106.362 E7.93354
G1 X95.881 Y105.358 E7.98038
G1 X95.883 Y104.591 E8.01601
G1 X95.985 Y103.576 E8.06339
G1 X96.152 Y102.769 E8.10167
G1 X96.485 Y101.727 E8.15248
G1 X96.787 Y101.026 E8.18793
G1 X97.25 Y100.184 E8.23256
G1 X97.695 Y99.536 E8.26907
G1 X98.392 Y98.712 E8.3192
M205 X30
G0 F3000 X98.682 Y98.957
M205 X8
G1 F450 X99.16 Y98.49 E8.35024
G1 X99.878 Y97.908 E8.39317
G1 X100.455 Y97.526 E8.42531
G1 X101.367 Y97.043 E8.47325
G1 X102.017 Y96.777 E8.50587
G1 X102.989 Y96.487 E8.55298
G1 X103.674 Y96.354 E8.58539
G1 X104.68 Y96.259 E8.63233
G1 X105.374 Y96.261 E8.66456
G1 X106.387 Y96.363 E8.71185
G1 X107.08 Y96.503 E8.74469
G1 X108.057 Y96.804 E8.79218
G1 X108.699 Y97.073 E8.82451
G1 X109.588 Y97.552 E8.87141
G1 X110.17 Y97.944 E8.904
G1 X110.956 Y98.594 E8.95138
G1 X111.449 Y99.09 E8.98386
G1 X112.09 Y99.877 E9.03101
G1 X112.476 Y100.46 E9.06348
G1 X112.96 Y101.373 E9.11148
G1 X113.215 Y101.985 E9.14227
G1 X113.35 Y102.419 E9.16339
G1 X113.44 Y102.769 E9.18017
G1 X113.644 Y103.774 E9.2278
G1 X113.707 Y104.25 E9.25011
G1 X113.746 Y104.844 E9.27775
G1 X113.735 Y105.448 E9.30581
G1 X113.636 Y106.399 E9.35022
G1 X113.497 Y107.08 E9.38251
G1 X113.196 Y108.057 E9.42999
G1 X112.926 Y108.702 E9.46247
G1 X112.444 Y109.595 E9.5096
G1 X112.026 Y110.207 E9.54403
G1 X111.316 Y111.045 E9.59504
G1 X110.84 Y111.511 E9.62598
G1 X110.123 Y112.092 E9.66885
G1 X109.545 Y112.473 E9.701
G1 X108.625 Y112.96 E9.74935
G1 X107.942 Y113.236 E9.78357
G1 X106.913 Y113.532 E9.8333
G1 X106.245 Y113.657 E9.86487
G1 X105.286 Y113.743 E9.90959
G1 X104.591 Y113.737 E9.94187
G1 X103.57 Y113.629 E9.98956
G1 X102.853 Y113.478 E10.02359
G1 X101.836 Y113.151 E10.07321
G1 X101.21 Y112.881 E10.10488
G1 X100.369 Y112.419 E10.14945
G1 X99.782 Y112.015 E10.18254
G1 X98.957 Y111.317 E10.23274
G1 X98.489 Y110.839 E10.26381
G1 X97.905 Y110.118 E10.30691
G1 X97.524 Y109.541 E10.33902
G1 X97.043 Y108.632 E10.38679
G1 X96.777 Y107.983 E10.41937
G1 X96.487 Y107.011 E10.46648
G1 X96.354 Y106.326 E10.49889
G1 X96.259 Y105.322 E10.54573
G1 X96.261 Y104.629 E10.57792
G1 X96.363 Y103.614 E10.6253
G1 X96.514 Y102.884 E10.65993
G1 X96.847 Y101.842 E10.71074
G1 X97.12 Y101.209 E10.74276
G1 X97.583 Y100.367 E10.78739
G1 X97.985 Y99.781 E10.8204
G1 X98.682 Y98.957 E10.87053
M205 X30
G0 F3000 X98.972 Y99.203
M205 X8
G1 F450 X99.399 Y98.785 E10.89828
G1 X100.117 Y98.203 E10.94121
G1 X100.633 Y97.862 E10.96994
G1 X101.545 Y97.379 E11.01787
G1 X102.126 Y97.141 E11.04704
G1 X103.098 Y96.851 E11.09415
G1 X103.71 Y96.732 E11.12311
G1 X104.716 Y96.637 E11.17004
G1 X105.336 Y96.639 E11.19884
G1 X106.349 Y96.741 E11.24613
G1 X106.968 Y96.866 E11.27546
G1 X107.945 Y97.167 E11.32295
G1 X108.519 Y97.408 E11.35186
G1 X109.408 Y97.887 E11.39877
G1 X109.928 Y98.237 E11.42788
G1 X110.714 Y98.887 E11.47525
G1 X111.154 Y99.33 E11.50425
G1 X111.795 Y100.117 E11.5514
G1 X112.14 Y100.638 E11.58042
G1 X112.624 Y101.551 E11.62842
G1 X112.852 Y102.097 E11.6559
G1 X112.987 Y102.531 E11.67701
G1 X113.067 Y102.844 E11.69202
G1 X113.271 Y103.849 E11.73965
G1 X113.328 Y104.275 E11.75962
G1 X113.367 Y104.869 E11.78726
G1 X113.357 Y105.408 E11.8123
G1 X113.258 Y106.359 E11.85672
G1 X113.134 Y106.968 E11.88558
G1 X112.833 Y107.945 E11.93307
G1 X112.591 Y108.521 E11.96209
G1 X112.109 Y109.414 E12.00922
G1 X111.736 Y109.961 E12.03997
G1 X111.026 Y110.799 E12.09099
G1 X110.6 Y111.215 E12.11864
G1 X109.883 Y111.796 E12.16151
G1 X109.367 Y112.137 E12.19024
G1 X108.447 Y112.624 E12.23858
G1 X107.837 Y112.871 E12.26915
G1 X106.808 Y113.167 E12.31889
G1 X106.211 Y113.278 E12.34709
G1 X105.252 Y113.364 E12.39181
G1 X104.631 Y113.359 E12.42066
G1 X103.61 Y113.251 E12.46834
G1 X102.97 Y113.116 E12.49873
G1 X101.953 Y112.789 E12.54834
G1 X101.393 Y112.548 E12.57666
G1 X100.552 Y112.086 E12.62123
G1 X100.028 Y111.725 E12.65079
G1 X99.203 Y111.027 E12.70098
G1 X98.784 Y110.6 E12.72877
G1 X98.2 Y109.879 E12.77186
G1 X97.859 Y109.363 E12.80059
G1 X97.378 Y108.454 E12.84836
G1 X97.141 Y107.874 E12.87746
G1 X96.851 Y106.902 E12.92457
G1 X96.732 Y106.291 E12.95349
G1 X96.637 Y105.287 E13.00033
G1 X96.639 Y104.667 E13.02913
G1 X96.741 Y103.652 E13.07651
G1 X96.876 Y103 E13.10744
G1 X97.209 Y101.958 E13.15825
G1 X97.453 Y101.392 E13.18687
G1 X97.916 Y100.55 E13.23151
G1 X98.275 Y100.027 E13.26097
G1 X98.972 Y99.203 E13.3111
M205 X30
G1 F3600 E8.3111
G0 F3000 X100.816 Y100.903
G0 X101.487 Y101.46
G0 X100.802 Y103.586
G0 X100.596 Y104.521
G0 X100.596 Y105.479
G0 X100.802 Y106.414
G0 X101.203 Y107.284
G0 X101.783 Y108.046
G0 X102.514 Y108.667
G0 X104.981 Y109.907
G0 X104.981 Y110.007
M205 X8
;TYPE:WALL-OUTER
G1 F3600 E13.3111
G1 F450 X104.006 Y109.907 E13.35662
G1 X103.062 Y109.616 E13.40251
G1 X102.201 Y109.153 E13.44791
G1 X101.446 Y108.527 E13.49347
G1 X100.826 Y107.767 E13.53902
G1 X100.366 Y106.896 E13.58478
G1 X100.085 Y105.958 E13.63026
G1 X99.993 Y104.98 E13.67588
G1 X100.093 Y104.006 E13.72136
G1 X100.384 Y103.062 E13.76724
G1 X100.847 Y102.201 E13.81265
G1 X101.473 Y101.446 E13.85821
G1 X102.233 Y100.826 E13.90376
G1 X103.104 Y100.366 E13.94951
G1 X104.042 Y100.085 E13.99499
G1 X105.019 Y99.993 E14.04057
G1 X105.994 Y100.093 E14.0861
G1 X106.938 Y100.384 E14.13198
G1 X107.799 Y100.847 E14.17739
G1 X108.554 Y101.473 E14.22294
G1 X109.174 Y102.233 E14.2685
G1 X109.634 Y103.104 E14.31425
G1 X109.915 Y104.042 E14.35973
G1 X110.007 Y105.019 E14.40531
G1 X109.907 Y105.994 E14.45084
G1 X109.616 Y106.938 E14.49672
G1 X109.153 Y107.799 E14.54213
G1 X108.527 Y108.554 E14.58768
G1 X107.767 Y109.174 E14.63324
G1 X106.896 Y109.634 E14.67899
G1 X105.958 Y109.915 E14.72447
G1 X104.981 Y110.007 E14.77005
M205 X30
G0 F3000 X105.237 Y109.385
M205 X8
G1 F450 X106.175 Y109.231 E14.8142
G1 X107.057 Y108.88 E14.85829
G1 X107.843 Y108.347 E14.9024
G1 X108.496 Y107.658 E14.9465
G1 X108.985 Y106.844 E14.9906
G1 X109.289 Y105.944 E15.03472
G1 X109.391 Y105 E15.07883
G1 X109.289 Y104.056 E15.12293
G1 X108.985 Y103.156 E15.16705
G1 X108.496 Y102.342 E15.21116
G1 X107.843 Y101.653 E15.25525
G1 X107.057 Y101.12 E15.29936
G1 X106.175 Y100.769 E15.34345
G1 X105.237 Y100.615 E15.3876
G1 X104.29 Y100.666 E15.43165
G1 X103.374 Y100.92 E15.4758
G1 X102.536 Y101.366 E15.5199
G1 X101.812 Y101.981 E15.56402
G1 X101.237 Y102.736 E15.6081
G1 X100.839 Y103.598 E15.6522
G1 X100.635 Y104.525 E15.69629
G1 X100.635 Y105.475 E15.74041
G1 X100.839 Y106.402 E15.7845
G1 X101.237 Y107.264 E15.8286
G1 X101.812 Y108.019 E15.87268
G1 X102.536 Y108.634 E15.9168
G1 X103.374 Y109.08 E15.9609
G1 X104.29 Y109.334 E16.00505
G1 X105.237 Y109.385 E16.0491
M205 X30
G0 F3000 X105.37 Y109.669
G1 F450 X105.609 Y109.64 E16.05604
G1 X105.844 Y109.605 E16.06345
G1 X106.062 Y109.555 E16.07056
G1 X106.281 Y109.505 E16.0769
G1 X106.483 Y109.439 E16.08295
G1 X106.683 Y109.37 E16.08942
G1 X106.869 Y109.288 E16.0959
G1 X107.054 Y109.203 E16.102
G1 X107.237 Y109.117 E16.10758
G1 X107.405 Y109.017 E16.1132
G1 X107.572 Y108.916 E16.11928
G1 X107.726 Y108.801 E16.12541
G1 X107.88 Y108.686 E16.13117
G1 X108.034 Y108.571 E16.13653
G1 X108.174 Y108.443 E16.1419
G1 X108.313 Y108.313 E16.14781
G1 X108.438 Y108.17 E16.15383
G1 X108.565 Y108.028 E16.15958
G1 X108.691 Y107.885 E16.16503
G1 X108.806 Y107.731 E16.17055
G1 X108.916 Y107.573 E16.17655
G1 X109.014 Y107.401 E16.18277
G1 X109.11 Y107.23 E16.18864
G1 X109.208 Y107.058 E16.19438
G1 X109.294 Y106.876 E16.20021
G1 X109.369 Y106.682 E16.20661
G1 X109.434 Y106.478 E16.21316
G1 X109.499 Y106.275 E16.21951
G1 X109.564 Y106.071 E16.22577
G1 X109.609 Y105.847 E16.23258
G1 X109.635 Y105.604 E16.23999
G1 X109.66 Y105.361 E16.24731
G1 X109.687 Y105.119 E16.2546
G1 X109.68 Y104.844 E16.26264
G1 X109.65 Y104.544 E16.27163
G1 X109.619 Y104.245 E16.28074
G1 X109.553 Y103.91 E16.29126
G1 X109.43 Y103.518 E16.30346
G1 X109.252 Y103.071 E16.31804
G1 X108.647 Y102.198 E16.347
G0 F3000 X107.56 Y101.111
G1 F450 X106.903 Y100.723 E16.36733
G1 X106.486 Y100.574 E16.38113
G1 X106.074 Y100.432 E16.3929
G1 X105.762 Y100.388 E16.40299
G1 X105.452 Y100.347 E16.41236
G1 X105.142 Y100.305 E16.42092
G1 X104.889 Y100.321 E16.42895
G1 X104.639 Y100.34 E16.43658
G1 X104.388 Y100.358 E16.4439
G1 X104.142 Y100.381 E16.45081
G1 X103.934 Y100.441 E16.45746
G1 X103.726 Y100.501 E16.46396
G1 X103.517 Y100.561 E16.4704
G1 X103.308 Y100.621 E16.47672
G1 X103.122 Y100.704 E16.48282
G1 X102.946 Y100.796 E16.48872
G1 X102.77 Y100.889 E16.49466
G1 X102.595 Y100.982 E16.50057
G1 X102.419 Y101.076 E16.50654
G1 X102.265 Y101.191 E16.5123
G1 X102.119 Y101.313 E16.51786
G1 X101.973 Y101.435 E16.52351
G1 X101.827 Y101.558 E16.52932
G1 X101.681 Y101.681 E16.5352
G1 X101.553 Y101.822 E16.54086
G1 X101.434 Y101.971 E16.5464
G1 X101.315 Y102.121 E16.55216
G1 X101.196 Y102.27 E16.55808
G1 X101.078 Y102.422 E16.56415
G1 X100.976 Y102.588 E16.56991
G1 X100.887 Y102.768 E16.57558
G1 X100.798 Y102.948 E16.58155
G1 X100.708 Y103.126 E16.58776
G1 X100.625 Y103.312 E16.59411
G1 X100.557 Y103.512 E16.60023
G1 X100.501 Y103.725 E16.60642
G1 X100.445 Y103.938 E16.61312
G1 X100.389 Y104.151 E16.62031
G1 X100.352 Y104.382 E16.62735
G1 X100.337 Y104.636 E16.63431
G1 X100.324 Y104.892 E16.64199
G1 X100.315 Y105.152 E16.65038
G1 X100.338 Y105.443 E16.65891
G1 X100.39 Y105.764 E16.66805
G1 X100.442 Y106.085 E16.67883
G1 X100.568 Y106.479 E16.69086
G1 X100.74 Y106.92 E16.70527
