;FLAVOR:RepRap
;TIME:606
;Filament used: 0.23279m
;Layer height: 0.2
;Generated with Cura_SteamEngine 2.6.2
M190 S60
M104 S210
M109 S210
G21 ;metric values
G90 ;absolute positioning
M82 ;set extruder to absolute mode
M107 ;start with the fan off
G28 X0 Y0 ;move X/Y to min endstops
G28 Z0 ;move Z to min endstops
G0 X1 Y0 Z0.15 F9000 ; Move in 1mm from edge and up [z] 0.15mm
G92 E0 ;zero the extruded length
G1 F200 E3 ;extrude 3mm of feed stock
G92 E0 ;zero the extruded length again
G1 F9000
M117 Printing...
G5
;LAYER_COUNT:45
;LAYER:0
M107
M205 X30
G0 F3000 X89.312 Y99.395 Z0.3
G0 X89.578 Y99.158
M205 X8
;TYPE:SKIRT
G1 F450 X90.308 Y98.558 E0.04389
G1 X90.807 Y98.2 E0.07242
G1 X91.168 Y97.997 E0.09165
G1 X91.704 Y97.725 E0.11957
G1 X92.268 Y97.483 E0.14808
G1 X92.639 Y97.369 E0.1661
G1 X93.283 Y97.2 E0.19703
G1 X93.886 Y97.084 E0.22555
G1 X94.538 Y97.046 E0.25589
G1 X100.65 Y97.122 E0.5398
G1 X104.078 Y97.03 E0.69908
G1 X104.304 Y97.029 E0.70957
G1 X107.847 Y97.104 E0.87418
G1 X114.987 Y97.01 E1.20584
G1 X115.481 Y97.03 E1.22881
G1 X116.046 Y97.082 E1.25516
G1 X116.945 Y97.254 E1.29767
G1 X117.58 Y97.441 E1.32842
G1 X118.156 Y97.652 E1.35691
G1 X118.762 Y97.975 E1.38881
G1 X119.683 Y98.556 E1.43939
G1 X120.179 Y98.917 E1.46788
G1 X120.651 Y99.367 E1.49817
G1 X121.188 Y99.956 E1.53519
G1 X121.571 Y100.435 E1.56368
G1 X121.901 Y100.986 E1.59351
G1 X122.253 Y101.675 E1.62945
G1 X122.496 Y102.239 E1.65797
G1 X122.606 Y102.589 E1.67501
G1 X122.785 Y103.251 E1.70687
G1 X122.906 Y103.852 E1.73534
G1 X122.947 Y104.393 E1.76054
G1 X122.964 Y105.315 E1.80337
G1 X122.936 Y105.928 E1.83188
G1 X122.851 Y106.433 E1.85566
G1 X122.709 Y107.066 E1.88579
G1 X122.536 Y107.655 E1.91431
G1 X122.322 Y108.149 E1.93931
G1 X121.868 Y109.053 E1.9863
G1 X121.558 Y109.582 E2.01478
G1 X121.181 Y110.066 E2.04327
G1 X120.933 Y110.325 E2.05993
G1 X120.174 Y111.059 E2.10897
G1 X119.706 Y111.456 E2.13748
G1 X118.966 Y111.906 E2.17771
G1 X117.993 Y112.381 E2.228
G1 X117.426 Y112.613 E2.25645
G1 X116.713 Y112.792 E2.2906
G1 X115.963 Y112.919 E2.32593
G1 X115.09 Y112.984 E2.36659
G1 X109.35 Y112.878 E2.63325
G1 X105.922 Y112.97 E2.79253
G1 X105.696 Y112.971 E2.80302
G1 X102.153 Y112.896 E2.96762
G1 X95.013 Y112.99 E3.29929
G1 X94.519 Y112.97 E3.32225
G1 X93.954 Y112.918 E3.34861
G1 X93.055 Y112.746 E3.39112
G1 X92.42 Y112.559 E3.42187
G1 X91.844 Y112.348 E3.45036
G1 X91.237 Y112.024 E3.48232
G1 X90.315 Y111.442 E3.53296
G1 X89.818 Y111.081 E3.56149
G1 X89.348 Y110.632 E3.59169
G1 X88.812 Y110.044 E3.62864
G1 X88.429 Y109.565 E3.65713
G1 X88.099 Y109.014 E3.68696
G1 X87.747 Y108.325 E3.7229
G1 X87.504 Y107.761 E3.75142
G1 X87.392 Y107.404 E3.7688
G1 X87.212 Y106.734 E3.80102
G1 X87.092 Y106.132 E3.82954
G1 X87.052 Y105.594 E3.85459
G1 X87.036 Y104.68 E3.89705
G1 X87.065 Y104.068 E3.92551
G1 X87.15 Y103.564 E3.94925
G1 X87.294 Y102.924 E3.97972
G1 X87.467 Y102.336 E4.00819
G1 X87.63 Y101.946 E4.02782
G1 X87.991 Y101.182 E4.06707
G1 X88.289 Y100.645 E4.0956
G1 X88.578 Y100.244 E4.11856
G1 X88.897 Y99.847 E4.14221
G1 X89.312 Y99.395 E4.17071
G1 X89.578 Y99.158 E4.18726
M205 X30
G0 F3000 X89.82 Y99.452
M205 X8
G1 F450 X90.55 Y98.852 E4.23115
G1 X91.028 Y98.51 E4.25845
G1 X91.34 Y98.336 E4.27504
G1 X91.876 Y98.064 E4.30296
G1 X92.417 Y97.834 E4.33026
G1 X92.736 Y97.737 E4.34575
G1 X93.38 Y97.568 E4.37668
G1 X93.958 Y97.457 E4.40401
G1 X94.533 Y97.426 E4.43076
G1 X100.656 Y97.502 E4.71518
G1 X104.088 Y97.41 E4.87465
G1 X104.296 Y97.409 E4.88431
G1 X107.844 Y97.484 E5.04914
G1 X114.992 Y97.39 E5.38118
G1 X115.446 Y97.408 E5.40228
G1 X116.011 Y97.46 E5.42864
G1 X116.837 Y97.618 E5.4677
G1 X117.472 Y97.805 E5.49845
G1 X118.024 Y98.009 E5.52578
G1 X118.559 Y98.297 E5.554
G1 X119.48 Y98.878 E5.60458
G1 X119.955 Y99.225 E5.6319
G1 X120.37 Y99.623 E5.65861
G1 X120.907 Y100.212 E5.69563
G1 X121.273 Y100.672 E5.72294
G1 X121.563 Y101.159 E5.74926
G1 X121.915 Y101.848 E5.7852
G1 X122.146 Y102.389 E5.81252
G1 X122.239 Y102.688 E5.82707
G1 X122.418 Y103.35 E5.85892
G1 X122.533 Y103.927 E5.88625
G1 X122.567 Y104.4 E5.90827
G1 X122.584 Y105.322 E5.95111
G1 X122.555 Y105.91 E5.97845
G1 X122.48 Y106.35 E5.99918
G1 X122.338 Y106.983 E6.02931
G1 X122.171 Y107.547 E6.05664
G1 X121.982 Y107.978 E6.07849
G1 X121.528 Y108.882 E6.12548
G1 X121.229 Y109.389 E6.15282
G1 X120.669 Y110.052 E6.19313
G1 X119.91 Y110.786 E6.24217
G1 X119.46 Y111.165 E6.2695
G1 X118.8 Y111.564 E6.30532
G1 X117.827 Y112.039 E6.35561
G1 X117.282 Y112.261 E6.38295
G1 X116.65 Y112.417 E6.41318
G1 X115.9 Y112.544 E6.44851
G1 X115.097 Y112.604 E6.48592
G1 X109.347 Y112.498 E6.75304
G1 X105.912 Y112.59 E6.91264
G1 X105.704 Y112.591 E6.9223
G1 X102.156 Y112.516 E7.08714
G1 X95.008 Y112.61 E7.41917
G1 X94.554 Y112.592 E7.44028
G1 X93.989 Y112.54 E7.46663
G1 X93.163 Y112.382 E7.50569
G1 X92.528 Y112.195 E7.53644
G1 X91.976 Y111.991 E7.56377
G1 X91.44 Y111.703 E7.59204
G1 X90.518 Y111.121 E7.64268
G1 X90.043 Y110.773 E7.67003
G1 X89.629 Y110.376 E7.69667
G1 X89.093 Y109.788 E7.73363
G1 X88.727 Y109.327 E7.76097
G1 X88.437 Y108.841 E7.78725
G1 X88.085 Y108.152 E7.82319
G1 X87.854 Y107.611 E7.85051
G1 X87.759 Y107.305 E7.8654
G1 X87.579 Y106.635 E7.89762
G1 X87.466 Y106.058 E7.92493
G1 X87.432 Y105.588 E7.94682
G1 X87.416 Y104.674 E7.98928
G1 X87.445 Y104.086 E8.01662
G1 X87.521 Y103.648 E8.03727
G1 X87.665 Y103.008 E8.06774
G1 X87.832 Y102.444 E8.09506
G1 X87.974 Y102.108 E8.112
G1 X88.335 Y101.344 E8.15125
G1 X88.622 Y100.831 E8.17855
G1 X88.875 Y100.482 E8.19858
G1 X89.194 Y100.085 E8.22223
G1 X89.592 Y99.652 E8.24955
G1 X89.82 Y99.452 E8.26363
M205 X30
G0 F3000 X90.061 Y99.745
M205 X8
G1 F450 X90.791 Y99.145 E8.30752
G1 X91.249 Y98.821 E8.33358
G1 X91.512 Y98.675 E8.34755
G1 X92.048 Y98.403 E8.37547
G1 X92.832 Y98.104 E8.41445
G1 X93.476 Y97.935 E8.44537
G1 X94.029 Y97.832 E8.4715
G1 X94.528 Y97.806 E8.49471
G1 X100.636 Y97.882 E8.77843
G1 X104.098 Y97.789 E8.93929
G1 X104.288 Y97.789 E8.94812
G1 X107.841 Y97.864 E9.11318
G1 X114.997 Y97.77 E9.44559
G1 X115.411 Y97.787 E9.46484
G1 X115.976 Y97.839 E9.49119
G1 X116.73 Y97.983 E9.52685
G1 X117.365 Y98.17 E9.55759
G1 X117.891 Y98.367 E9.58368
G1 X118.356 Y98.618 E9.60823
G1 X119.277 Y99.199 E9.65881
G1 X119.73 Y99.532 E9.68492
G1 X120.089 Y99.879 E9.70811
G1 X120.626 Y100.468 E9.74513
G1 X120.974 Y100.909 E9.77122
G1 X121.225 Y101.332 E9.79407
G1 X121.577 Y102.021 E9.83001
G1 X121.872 Y102.787 E9.86813
G1 X122.051 Y103.449 E9.89999
G1 X122.159 Y104 E9.92607
G1 X122.187 Y104.407 E9.94501
G1 X122.204 Y105.329 E9.98785
G1 X122.175 Y105.89 E10.01394
G1 X122.109 Y106.267 E10.03172
G1 X121.967 Y106.9 E10.06185
G1 X121.806 Y107.438 E10.08793
G1 X121.643 Y107.808 E10.10671
G1 X121.189 Y108.712 E10.1537
G1 X120.902 Y109.195 E10.17979
G1 X120.405 Y109.778 E10.21538
G1 X119.646 Y110.512 E10.26442
G1 X119.215 Y110.873 E10.29053
G1 X118.633 Y111.223 E10.32208
G1 X117.66 Y111.698 E10.37237
G1 X117.139 Y111.908 E10.39846
G1 X116.586 Y112.043 E10.4249
G1 X115.836 Y112.17 E10.46023
G1 X115.104 Y112.224 E10.49432
G1 X109.366 Y112.118 E10.76089
G1 X105.902 Y112.211 E10.92184
G1 X105.712 Y112.211 E10.93066
G1 X102.159 Y112.136 E11.09573
G1 X95.003 Y112.23 E11.42814
G1 X94.589 Y112.213 E11.44739
G1 X94.024 Y112.161 E11.47374
G1 X93.27 Y112.017 E11.50939
G1 X92.635 Y111.83 E11.54014
G1 X92.109 Y111.633 E11.56623
G1 X91.643 Y111.381 E11.59084
G1 X90.721 Y110.799 E11.64148
G1 X90.268 Y110.466 E11.66759
G1 X89.91 Y110.12 E11.69072
G1 X89.374 Y109.532 E11.72767
G1 X89.026 Y109.091 E11.75377
G1 X88.775 Y108.668 E11.77661
G1 X88.423 Y107.979 E11.81255
G1 X88.126 Y107.207 E11.85097
G1 X87.946 Y106.537 E11.88319
G1 X87.839 Y105.985 E11.90931
G1 X87.812 Y105.581 E11.92812
G1 X87.796 Y104.667 E11.97058
G1 X87.826 Y104.106 E11.99667
G1 X87.891 Y103.731 E12.01435
G1 X88.035 Y103.091 E12.04482
G1 X88.197 Y102.553 E12.07092
G1 X88.318 Y102.27 E12.08521
G1 X88.679 Y101.506 E12.12446
G1 X88.954 Y101.017 E12.15052
G1 X89.171 Y100.72 E12.1676
G1 X89.49 Y100.323 E12.19126
G1 X90.061 Y99.745 E12.229
M205 X30
G0 F3000 X90.302 Y100.039
M205 X8
G1 F450 X91.032 Y99.439 E12.27289
G1 X91.683 Y99.013 E12.30902
G1 X92.219 Y98.741 E12.33694
G1 X92.929 Y98.472 E12.37221
G1 X93.573 Y98.303 E12.40313
G1 X94.098 Y98.206 E12.42793
G1 X94.523 Y98.186 E12.44769
G1 X100.641 Y98.262 E12.73188
G1 X104.108 Y98.169 E12.89297
G1 X104.28 Y98.169 E12.90096
G1 X107.838 Y98.244 E13.06626
G1 X115.002 Y98.15 E13.39904
G1 X115.376 Y98.165 E13.41643
G1 X115.941 Y98.217 E13.44278
G1 X116.623 Y98.347 E13.47503
G1 X117.258 Y98.534 E13.50577
G1 X117.757 Y98.723 E13.53056
G1 X118.154 Y98.94 E13.55157
G1 X119.075 Y99.521 E13.60215
G1 X119.504 Y99.839 E13.62695
G1 X119.808 Y100.135 E13.64666
G1 X120.345 Y100.724 E13.68368
G1 X120.674 Y101.144 E13.70846
G1 X120.886 Y101.505 E13.72791
G1 X121.238 Y102.194 E13.76385
G1 X121.505 Y102.886 E13.7983
G1 X121.684 Y103.548 E13.83015
G1 X121.785 Y104.073 E13.85498
G1 X121.807 Y104.414 E13.87085
G1 X121.824 Y105.336 E13.91369
G1 X121.794 Y105.869 E13.93848
G1 X121.738 Y106.183 E13.9533
G1 X121.596 Y106.816 E13.98343
G1 X121.441 Y107.327 E14.00823
G1 X121.303 Y107.637 E14.02399
G1 X120.849 Y108.541 E14.07098
G1 X120.575 Y108.999 E14.09577
G1 X120.141 Y109.505 E14.12673
G1 X119.382 Y110.239 E14.17577
G1 X118.971 Y110.581 E14.20061
G1 X118.466 Y110.881 E14.22789
G1 X117.493 Y111.356 E14.27818
G1 X116.997 Y111.554 E14.30299
G1 X116.523 Y111.668 E14.32563
G1 X115.773 Y111.795 E14.36097
G1 X115.111 Y111.844 E14.3918
G1 X109.363 Y111.738 E14.65883
G1 X105.892 Y111.831 E14.8201
G1 X105.72 Y111.831 E14.82809
G1 X102.162 Y111.756 E14.99339
G1 X94.998 Y111.85 E15.32617
G1 X94.624 Y111.835 E15.34356
G1 X94.059 Y111.783 E15.36991
G1 X93.377 Y111.653 E15.40216
G1 X92.742 Y111.466 E15.4329
G1 X92.243 Y111.277 E15.45769
G1 X91.845 Y111.06 E15.47874
G1 X90.923 Y110.478 E15.52939
G1 X90.494 Y110.16 E15.55419
G1 X90.191 Y109.864 E15.57387
G1 X89.655 Y109.276 E15.61082
G1 X89.325 Y108.856 E15.63563
G1 X89.114 Y108.495 E15.65505
G1 X88.762 Y107.806 E15.69099
G1 X88.493 Y107.108 E15.72573
G1 X88.313 Y106.438 E15.75796
G1 X88.214 Y105.914 E15.78273
G1 X88.192 Y105.574 E15.79855
G1 X88.176 Y104.66 E15.84101
G1 X88.206 Y104.127 E15.86581
G1 X88.262 Y103.814 E15.88058
G1 X88.406 Y103.174 E15.91105
G1 X88.661 Y102.433 E15.94745
G1 X89.022 Y101.669 E15.98669
G1 X89.286 Y101.204 E16.01153
G1 X89.467 Y100.958 E16.02572
G1 X89.786 Y100.561 E16.04937
G1 X90.302 Y100.039 E16.08346
M205 X30
G0 F3000 X90.543 Y100.333
M205 X8
G1 F450 X91.273 Y99.733 E16.12735
G1 X91.855 Y99.352 E16.15966
G1 X92.391 Y99.08 E16.18758
G1 X93.025 Y98.839 E16.21908
G1 X93.669 Y98.67 E16.25001
G1 X94.166 Y98.581 E16.27346
G1 X94.519 Y98.566 E16.28987
G1 X100.646 Y98.642 E16.57448
G1 X104.118 Y98.549 E16.7358
G1 X104.272 Y98.549 E16.74296
G1 X107.835 Y98.624 E16.90849
G1 X115.007 Y98.53 E17.24164
G1 X115.341 Y98.543 E17.25717
G1 X115.906 Y98.595 E17.28352
G1 X116.515 Y98.712 E17.31232
G1 X117.15 Y98.899 E17.34307
G1 X117.622 Y99.079 E17.36653
G1 X117.951 Y99.261 E17.384
G1 X118.872 Y99.842 E17.43458
G1 X119.276 Y100.144 E17.458
G1 X119.527 Y100.391 E17.47436
G1 X120.064 Y100.98 E17.51138
G1 X120.374 Y101.379 E17.53485
G1 X120.548 Y101.678 E17.55092
G1 X120.9 Y102.367 E17.58686
G1 X121.138 Y102.985 E17.61762
G1 X121.317 Y103.647 E17.64947
G1 X121.41 Y104.144 E17.67295
G1 X121.427 Y104.421 E17.68584
G1 X121.444 Y105.343 E17.72868
G1 X121.414 Y105.847 E17.75213
G1 X121.368 Y106.1 E17.76407
G1 X121.226 Y106.733 E17.7942
G1 X121.077 Y107.216 E17.81768
G1 X120.964 Y107.467 E17.83047
G1 X120.51 Y108.371 E17.87745
G1 X120.248 Y108.802 E17.90088
G1 X119.877 Y109.232 E17.92726
G1 X119.118 Y109.966 E17.9763
G1 X118.728 Y110.287 E17.99976
G1 X118.299 Y110.54 E18.0229
G1 X117.326 Y111.015 E18.07319
G1 X116.857 Y111.2 E18.09661
G1 X116.46 Y111.293 E18.11554
G1 X115.71 Y111.42 E18.15088
G1 X115.118 Y111.464 E18.17845
G1 X109.36 Y111.358 E18.44594
G1 X105.882 Y111.451 E18.60754
G1 X105.728 Y111.451 E18.6147
G1 X102.165 Y111.376 E18.78023
G1 X94.993 Y111.47 E19.11338
G1 X94.659 Y111.457 E19.1289
G1 X94.094 Y111.405 E19.15526
G1 X93.485 Y111.288 E19.18406
G1 X92.85 Y111.101 E19.21481
G1 X92.378 Y110.921 E19.23827
G1 X92.048 Y110.739 E19.25578
G1 X91.126 Y110.157 E19.30642
G1 X90.722 Y109.854 E19.32988
G1 X90.471 Y109.608 E19.3462
G1 X89.935 Y109.02 E19.38316
G1 X89.626 Y108.621 E19.4066
G1 X89.452 Y108.322 E19.42266
G1 X89.1 Y107.633 E19.4586
G1 X88.86 Y107.01 E19.48961
G1 X88.68 Y106.34 E19.52183
G1 X88.588 Y105.843 E19.54531
G1 X88.571 Y105.568 E19.55811
G1 X88.555 Y104.654 E19.60057
G1 X88.587 Y104.15 E19.62403
G1 X88.633 Y103.898 E19.63592
G1 X88.777 Y103.258 E19.66639
G1 X89.005 Y102.595 E19.69896
G1 X89.366 Y101.831 E19.73821
G1 X89.763 Y101.196 E19.77299
G1 X90.082 Y100.799 E19.79665
G1 X90.543 Y100.333 E19.82709
M205 X30
G1 F3600 E14.82709
G0 F3000 X92.265 Y102.134
G0 X93.128 Y103.017
G0 X93.173 Y103.112
G0 X93.104 Y103.04
M205 X8
;TYPE:WALL-INNER
G1 F3600 E19.82709
G1 F450 X93.188 Y102.959 E19.83251
G1 X93.284 Y102.879 E19.83832
G1 X93.311 Y102.856 E19.83996
G1 X93.479 Y102.734 E19.84961
G1 X93.633 Y102.637 E19.85806
G1 X93.694 Y102.605 E19.86126
G1 X93.796 Y102.55 E19.86664
G1 X93.912 Y102.499 E19.87253
G1 X93.987 Y102.466 E19.87633
G1 X94.136 Y102.413 E19.88368
G1 X94.148 Y102.408 E19.88428
G1 X94.339 Y102.352 E19.89353
G1 X94.379 Y102.344 E19.89542
G1 X94.546 Y102.308 E19.90336
G1 X94.618 Y102.298 E19.90674
G1 X94.703 Y102.286 E19.91072
G1 X94.858 Y102.276 E19.91794
G1 X94.91 Y102.272 E19.92036
G1 X95.09 Y102.272 E19.92872
G1 X95.11 Y102.273 E19.92965
G1 X95.297 Y102.286 E19.93836
G1 X95.349 Y102.293 E19.94079
G1 X95.454 Y102.308 E19.94572
G1 X95.59 Y102.336 E19.95217
G1 X95.661 Y102.352 E19.95555
G1 X95.824 Y102.399 E19.96343
G1 X95.852 Y102.408 E19.9648
G1 X96.013 Y102.466 E19.97274
G1 X96.059 Y102.486 E19.97507
G1 X96.204 Y102.55 E19.98244
G1 X96.279 Y102.59 E19.98638
G1 X96.367 Y102.637 E19.99102
G1 X96.487 Y102.712 E19.99759
G1 X96.521 Y102.734 E19.99947
G1 X96.689 Y102.856 E20.00912
G1 X96.812 Y102.959 E20.01657
G1 X96.874 Y103.018 E20.02054
G1 X96.978 Y103.119 E20.02728
G1 X97.043 Y103.191 E20.03178
G1 X97.095 Y103.249 E20.0354
G1 X97.196 Y103.379 E20.04305
G1 X97.209 Y103.395 E20.044
G1 X97.311 Y103.546 E20.05247
G1 X97.336 Y103.589 E20.05478
G1 X97.407 Y103.712 E20.06137
G1 X97.45 Y103.801 E20.06596
G1 X97.494 Y103.891 E20.07062
G1 X97.547 Y104.022 E20.07718
G1 X97.567 Y104.072 E20.07968
G1 X97.626 Y104.253 E20.08853
G1 X97.669 Y104.424 E20.09672
G1 X97.682 Y104.498 E20.10021
G1 X97.702 Y104.61 E20.10549
G1 X97.715 Y104.738 E20.11147
G1 X97.722 Y104.802 E20.11446
G1 X97.728 Y104.976 E20.12254
G1 X97.729 Y104.993 E20.12333
G1 X97.722 Y105.193 E20.13263
G1 X97.719 Y105.228 E20.13426
G1 X97.701 Y105.393 E20.14197
G1 X97.688 Y105.47 E20.1456
G1 X97.671 Y105.569 E20.15026
G1 X97.636 Y105.708 E20.15692
G1 X97.626 Y105.747 E20.15879
G1 X97.567 Y105.928 E20.16763
G1 X97.559 Y105.949 E20.16868
G1 X97.494 Y106.109 E20.1767
G1 X97.465 Y106.17 E20.17984
G1 X97.408 Y106.285 E20.1858
G1 X97.353 Y106.382 E20.19098
G1 X97.314 Y106.45 E20.19462
G1 X97.221 Y106.588 E20.20235
G1 X97.209 Y106.605 E20.20331
G1 X97.095 Y106.751 E20.21192
G1 X97.063 Y106.786 E20.21412
G1 X96.978 Y106.881 E20.22004
G1 X96.896 Y106.96 E20.22533
G1 X96.814 Y107.039 E20.23062
G1 X96.717 Y107.12 E20.23649
G1 X96.691 Y107.142 E20.23807
G1 X96.519 Y107.267 E20.24795
G1 X96.367 Y107.363 E20.2563
G1 X96.307 Y107.395 E20.25945
G1 X96.207 Y107.448 E20.26471
G1 X96.089 Y107.5 E20.2707
G1 X96.013 Y107.534 E20.27457
G1 X95.864 Y107.587 E20.28191
G1 X95.852 Y107.592 E20.28252
G1 X95.661 Y107.648 E20.29176
G1 X95.621 Y107.656 E20.29366
G1 X95.454 Y107.692 E20.30159
G1 X95.382 Y107.702 E20.30497
G1 X95.297 Y107.714 E20.30896
G1 X95.142 Y107.724 E20.31617
G1 X95.09 Y107.728 E20.31859
G1 X94.91 Y107.728 E20.32695
G1 X94.89 Y107.727 E20.32788
G1 X94.703 Y107.714 E20.33659
G1 X94.651 Y107.707 E20.33903
G1 X94.546 Y107.692 E20.34395
G1 X94.41 Y107.664 E20.3504
G1 X94.339 Y107.648 E20.35378
G1 X94.176 Y107.601 E20.36166
G1 X94.148 Y107.592 E20.36303
G1 X93.987 Y107.534 E20.37098
