;FLAVOR:RepRap
;TIME:419
;Filament used: 0.120271m
;Layer height: 0.2
;Generated with Cura_SteamEngine 2.6.2
M190 S60
M104 S210
M109 S210
G21 ;metric values
G90 ;absolute positioning
M82 ;set extruder to absolute mode
M107 ;start with the fan off
G28 X0 Y0 ;move X/Y to min endstops
G28 Z0 ;move Z to min endstops
G0 X1 Y0 Z0.15 F9000 ; Move in 1mm from edge and up [z] 0.15mm
G92 E0 ;zero the extruded length
G1 F200 E3 ;extrude 3mm of feed stock
G92 E0 ;zero the extruded length again
G1 F9000
M117 Printing...
G5
;LAYER_COUNT:50
;LAYER:0
M107
M205 X30
G0 F3000 X98.15 Y98.588 Z0.3
M205 X8
;TYPE:SKIRT
G1 F450 X98.782 Y97.968 E0.04112
G1 X99.434 Y97.439 E0.08012
G1 X100.199 Y96.934 E0.1227
G1 X101.025 Y96.497 E0.1661
G1 X101.872 Y96.149 E0.20863
G1 X102.727 Y95.892 E0.2501
G1 X103.325 Y95.754 E0.27861
G1 X103.631 Y95.715 E0.29294
G1 X104.575 Y95.624 E0.33698
G1 X105.188 Y95.605 E0.36547
G1 X105.511 Y95.627 E0.38051
G1 X106.42 Y95.721 E0.42295
G1 X107.025 Y95.824 E0.45146
G1 X107.37 Y95.92 E0.46809
G1 X108.302 Y96.218 E0.51354
G1 X109.146 Y96.581 E0.55622
G1 X109.928 Y97.013 E0.59771
G1 X110.654 Y97.508 E0.63852
G1 X111.329 Y98.067 E0.67923
G1 X111.775 Y98.489 E0.70775
G1 X112.156 Y98.955 E0.73571
G1 X112.97 Y100.093 E0.8007
G1 X113.385 Y100.794 E0.83854
G1 X113.616 Y101.275 E0.86332
G1 X113.889 Y101.987 E0.89874
G1 X114.12 Y102.774 E0.93683
G1 X114.254 Y103.373 E0.96534
G1 X114.295 Y103.718 E0.98148
G1 X114.377 Y104.724 E1.02836
G1 X114.367 Y105.604 E1.06924
G1 X114.28 Y106.424 E1.10754
G1 X114.097 Y107.316 E1.14984
G1 X113.823 Y108.204 E1.193
G1 X113.604 Y108.777 E1.22149
G1 X113.464 Y109.057 E1.23603
G1 X113.03 Y109.859 E1.27839
G1 X112.526 Y110.608 E1.32032
G1 X111.944 Y111.316 E1.36289
G1 X111.525 Y111.763 E1.39135
G1 X111.281 Y111.976 E1.40639
G1 X110.568 Y112.557 E1.44911
G1 X110.068 Y112.913 E1.47762
G1 X109.569 Y113.181 E1.50393
G1 X108.362 Y113.739 E1.56569
G1 X107.666 Y113.997 E1.60017
G1 X107.181 Y114.134 E1.62358
G1 X106.339 Y114.291 E1.66336
G1 X105.407 Y114.378 E1.70684
G1 X104.793 Y114.395 E1.73537
G1 X104.482 Y114.373 E1.74985
G1 X103.577 Y114.279 E1.79211
G1 X102.973 Y114.176 E1.82057
G1 X102.63 Y114.08 E1.83712
G1 X101.698 Y113.782 E1.88256
G1 X100.854 Y113.419 E1.92524
G1 X100.072 Y112.987 E1.96673
G1 X99.348 Y112.493 E2.00744
G1 X98.671 Y111.933 E2.04825
G1 X98.225 Y111.512 E2.07674
G1 X98.021 Y111.278 E2.09116
G1 X97.442 Y110.567 E2.13375
G1 X97.086 Y110.067 E2.16226
G1 X96.9 Y109.736 E2.17989
G1 X96.436 Y108.828 E2.22726
G1 X96.113 Y108.019 E2.26772
G1 X95.883 Y107.24 E2.30544
G1 X95.711 Y106.35 E2.34755
G1 X95.623 Y105.421 E2.39089
G1 X95.605 Y104.808 E2.41937
G1 X95.626 Y104.501 E2.43367
G1 X95.718 Y103.595 E2.47596
G1 X95.82 Y102.99 E2.50446
G1 X95.906 Y102.674 E2.51967
G1 X96.182 Y101.785 E2.56291
G1 X96.536 Y100.944 E2.60529
G1 X96.968 Y100.144 E2.64752
G1 X97.294 Y99.624 E2.67603
G1 X97.512 Y99.344 E2.69251
G1 X98.15 Y98.588 E2.73846
M205 X30
G0 F3000 X98.441 Y98.833
M205 X8
G1 F450 X99.022 Y98.264 E2.77623
G1 X99.674 Y97.735 E2.81523
G1 X100.377 Y97.27 E2.85438
G1 X101.203 Y96.833 E2.89778
G1 X101.982 Y96.513 E2.9369
G1 X102.837 Y96.256 E2.97837
G1 X103.668 Y96.093 E3.0177
G1 X104.612 Y96.002 E3.06175
G1 X105.472 Y96.005 E3.1017
G1 X106.381 Y96.099 E3.14414
G1 X106.961 Y96.199 E3.17148
G1 X107.255 Y96.282 E3.18567
G1 X108.187 Y96.58 E3.23112
G1 X108.962 Y96.914 E3.27032
G1 X109.744 Y97.346 E3.31181
G1 X110.412 Y97.801 E3.34935
G1 X111.087 Y98.36 E3.39006
G1 X111.513 Y98.765 E3.41736
G1 X111.847 Y99.176 E3.44196
G1 X112.661 Y100.314 E3.50695
G1 X113.042 Y100.958 E3.5417
G1 X113.273 Y101.439 E3.56649
G1 X113.525 Y102.095 E3.59913
G1 X113.756 Y102.882 E3.63722
G1 X113.883 Y103.456 E3.66453
G1 X113.917 Y103.749 E3.67823
G1 X113.999 Y104.755 E3.72511
G1 X113.989 Y105.564 E3.76269
G1 X113.902 Y106.384 E3.80099
G1 X113.734 Y107.204 E3.83987
G1 X113.46 Y108.092 E3.88303
G1 X113.13 Y108.876 E3.92254
G1 X112.696 Y109.678 E3.9649
G1 X112.233 Y110.367 E4.00346
G1 X111.651 Y111.075 E4.04603
G1 X111.041 Y111.682 E4.086
G1 X110.328 Y112.263 E4.12872
G1 X109.848 Y112.602 E4.15601
G1 X109.41 Y112.836 E4.17908
G1 X108.203 Y113.394 E4.24084
G1 X107.563 Y113.631 E4.27254
G1 X107.078 Y113.768 E4.29595
G1 X106.303 Y113.912 E4.33256
G1 X105.371 Y113.999 E4.37604
G1 X104.522 Y113.995 E4.41547
G1 X103.617 Y113.901 E4.45774
G1 X103.037 Y113.8 E4.48508
G1 X102.745 Y113.718 E4.49917
G1 X101.813 Y113.42 E4.54462
G1 X101.038 Y113.086 E4.58381
G1 X100.256 Y112.654 E4.62531
G1 X99.59 Y112.2 E4.66275
G1 X98.913 Y111.64 E4.70356
G1 X98.315 Y111.038 E4.74297
G1 X97.736 Y110.327 E4.78556
G1 X97.397 Y109.847 E4.81285
G1 X97.238 Y109.563 E4.82797
G1 X96.774 Y108.655 E4.87533
G1 X96.477 Y107.911 E4.91254
G1 X96.247 Y107.132 E4.95027
G1 X96.089 Y106.314 E4.98897
G1 X96.001 Y105.385 E5.03231
G1 X96.004 Y104.54 E5.07156
G1 X96.096 Y103.634 E5.11386
G1 X96.269 Y102.787 E5.15401
G1 X96.545 Y101.898 E5.19725
G1 X96.87 Y101.125 E5.23619
G1 X97.302 Y100.325 E5.27842
G1 X97.616 Y99.827 E5.30577
G1 X97.803 Y99.589 E5.31983
G1 X98.441 Y98.833 E5.36578
M205 X30
G0 F3000 X98.731 Y99.078
M205 X8
G1 F450 X99.261 Y98.559 E5.40023
G1 X99.913 Y98.03 E5.43923
G1 X100.555 Y97.606 E5.47496
G1 X101.381 Y97.169 E5.51837
G1 X102.091 Y96.877 E5.55403
G1 X102.946 Y96.62 E5.59549
G1 X103.704 Y96.471 E5.63138
G1 X104.648 Y96.38 E5.67543
G1 X105.433 Y96.383 E5.71189
G1 X106.342 Y96.477 E5.75433
G1 X107.139 Y96.644 E5.79216
G1 X108.071 Y96.942 E5.8376
G1 X108.778 Y97.247 E5.87337
G1 X109.56 Y97.679 E5.91486
G1 X110.169 Y98.094 E5.94909
G1 X110.844 Y98.653 E5.9898
G1 X111.251 Y99.041 E6.01592
G1 X111.538 Y99.397 E6.03716
G1 X112.352 Y100.535 E6.10215
G1 X112.7 Y101.123 E6.13388
G1 X112.931 Y101.604 E6.15867
G1 X113.16 Y102.202 E6.18841
G1 X113.391 Y102.989 E6.22651
G1 X113.538 Y103.78 E6.26388
G1 X113.62 Y104.786 E6.31076
G1 X113.611 Y105.524 E6.34504
G1 X113.524 Y106.344 E6.38334
G1 X113.37 Y107.092 E6.41881
G1 X113.096 Y107.98 E6.46198
G1 X112.796 Y108.695 E6.49799
G1 X112.362 Y109.497 E6.54035
G1 X111.939 Y110.125 E6.57552
G1 X111.357 Y110.833 E6.61809
G1 X110.801 Y111.387 E6.65454
G1 X110.088 Y111.968 E6.69726
G1 X109.629 Y112.291 E6.72333
G1 X109.251 Y112.491 E6.74319
G1 X108.044 Y113.049 E6.80496
G1 X107.46 Y113.265 E6.83388
G1 X106.975 Y113.402 E6.85729
G1 X106.268 Y113.534 E6.89069
G1 X105.336 Y113.621 E6.93417
G1 X104.561 Y113.617 E6.97017
G1 X103.656 Y113.523 E7.01243
G1 X102.861 Y113.356 E7.05016
G1 X101.929 Y113.058 E7.09561
G1 X101.222 Y112.753 E7.13137
G1 X100.44 Y112.321 E7.17287
G1 X99.832 Y111.908 E7.20701
G1 X99.155 Y111.348 E7.24782
G1 X98.61 Y110.798 E7.28378
G1 X98.031 Y110.087 E7.32637
G1 X97.577 Y109.39 E7.36501
G1 X97.113 Y108.482 E7.41237
G1 X96.842 Y107.804 E7.44628
G1 X96.612 Y107.025 E7.48401
G1 X96.468 Y106.278 E7.51935
G1 X96.38 Y105.349 E7.56269
G1 X96.382 Y104.578 E7.5985
G1 X96.474 Y103.672 E7.6408
G1 X96.632 Y102.9 E7.6774
G1 X96.908 Y102.011 E7.72064
G1 X97.204 Y101.305 E7.75619
G1 X97.636 Y100.505 E7.79842
G1 X98.093 Y99.834 E7.83613
G1 X98.731 Y99.078 E7.88208
M205 X30
G0 F3000 X99.022 Y99.324
M205 X8
G1 F450 X99.501 Y98.854 E7.91325
G1 X100.153 Y98.325 E7.95225
G1 X100.733 Y97.941 E7.98456
G1 X101.559 Y97.504 E8.02796
G1 X102.2 Y97.241 E8.06014
G1 X103.055 Y96.984 E8.10161
G1 X103.74 Y96.849 E8.13404
G1 X104.684 Y96.758 E8.17809
G1 X105.394 Y96.761 E8.21107
G1 X106.303 Y96.855 E8.25351
G1 X107.023 Y97.006 E8.28768
G1 X107.955 Y97.304 E8.33313
G1 X108.594 Y97.579 E8.36544
G1 X109.376 Y98.011 E8.40694
G1 X109.927 Y98.386 E8.4379
G1 X110.602 Y98.945 E8.47861
G1 X110.987 Y99.316 E8.50344
G1 X111.229 Y99.618 E8.52141
G1 X112.043 Y100.756 E8.5864
G1 X112.357 Y101.287 E8.61506
G1 X112.588 Y101.768 E8.63984
G1 X112.795 Y102.309 E8.66675
G1 X113.026 Y103.096 E8.70484
G1 X113.159 Y103.811 E8.73862
G1 X113.241 Y104.817 E8.7855
G1 X113.233 Y105.484 E8.81649
G1 X113.146 Y106.304 E8.85479
G1 X113.007 Y106.98 E8.88684
G1 X112.733 Y107.868 E8.93001
G1 X112.462 Y108.514 E8.96255
G1 X112.028 Y109.316 E9.0049
G1 X111.646 Y109.884 E9.03669
G1 X111.064 Y110.592 E9.07926
G1 X110.561 Y111.093 E9.11224
G1 X109.848 Y111.674 E9.15496
G1 X109.41 Y111.979 E9.17975
G1 X109.091 Y112.146 E9.19647
G1 X107.884 Y112.704 E9.25824
G1 X107.356 Y112.9 E9.2844
G1 X106.871 Y113.037 E9.30781
G1 X106.233 Y113.156 E9.33795
G1 X105.301 Y113.243 E9.38143
G1 X104.6 Y113.239 E9.41399
G1 X103.695 Y113.145 E9.45625
G1 X102.977 Y112.994 E9.49033
G1 X102.045 Y112.696 E9.53578
G1 X101.406 Y112.421 E9.56809
G1 X100.624 Y111.989 E9.60959
G1 X100.075 Y111.615 E9.64044
G1 X99.398 Y111.055 E9.68125
G1 X98.905 Y110.558 E9.71376
G1 X98.326 Y109.847 E9.75635
G1 X97.915 Y109.217 E9.79129
G1 X97.451 Y108.309 E9.83865
G1 X97.206 Y107.696 E9.86932
G1 X96.976 Y106.917 E9.90704
G1 X96.846 Y106.243 E9.93893
G1 X96.758 Y105.314 E9.98227
G1 X96.76 Y104.616 E10.01469
G1 X96.852 Y103.71 E10.05699
G1 X96.995 Y103.012 E10.09008
G1 X97.271 Y102.123 E10.13332
G1 X97.539 Y101.486 E10.16542
G1 X97.971 Y100.686 E10.20765
G1 X98.384 Y100.08 E10.24171
G1 X99.022 Y99.324 E10.28766
M205 X30
G0 F3000 X99.312 Y99.569
M205 X8
G1 F450 X99.74 Y99.149 E10.31551
G1 X100.392 Y98.62 E10.35451
G1 X100.91 Y98.277 E10.38337
G1 X101.736 Y97.84 E10.42677
G1 X102.31 Y97.605 E10.45558
G1 X103.165 Y97.348 E10.49705
G1 X103.777 Y97.228 E10.52601
G1 X104.721 Y97.137 E10.57006
G1 X105.355 Y97.139 E10.59951
G1 X106.264 Y97.233 E10.64196
G1 X106.908 Y97.368 E10.67252
G1 X107.84 Y97.666 E10.71797
G1 X108.411 Y97.912 E10.74685
G1 X109.193 Y98.344 E10.78834
G1 X109.685 Y98.679 E10.81599
G1 X110.36 Y99.238 E10.8567
G1 X110.722 Y99.59 E10.88015
G1 X110.92 Y99.839 E10.89493
G1 X111.734 Y100.977 E10.95991
G1 X112.015 Y101.452 E10.98555
G1 X112.246 Y101.933 E11.01033
G1 X112.431 Y102.416 E11.03436
G1 X112.662 Y103.203 E11.07245
G1 X112.78 Y103.842 E11.10263
G1 X112.862 Y104.848 E11.14952
G1 X112.855 Y105.444 E11.1772
G1 X112.768 Y106.264 E11.2155
G1 X112.644 Y106.868 E11.24414
G1 X112.37 Y107.756 E11.28731
G1 X112.128 Y108.333 E11.31637
G1 X111.694 Y109.135 E11.35872
G1 X111.352 Y109.643 E11.38717
G1 X110.77 Y110.351 E11.42974
G1 X110.321 Y110.798 E11.45917
G1 X109.608 Y111.379 E11.50189
G1 X109.193 Y111.666 E11.52532
G1 X108.932 Y111.802 E11.53899
G1 X107.725 Y112.36 E11.60076
G1 X107.253 Y112.534 E11.62412
G1 X106.768 Y112.671 E11.64753
G1 X106.197 Y112.777 E11.6745
G1 X105.265 Y112.864 E11.71798
G1 X104.639 Y112.861 E11.74706
G1 X103.734 Y112.767 E11.78932
G1 X103.092 Y112.632 E11.81979
G1 X102.16 Y112.334 E11.86524
G1 X101.589 Y112.088 E11.89412
G1 X100.807 Y111.656 E11.93561
G1 X100.317 Y111.322 E11.96316
G1 X99.64 Y110.762 E12.00397
G1 X99.199 Y110.318 E12.03303
G1 X98.62 Y109.607 E12.07562
G1 X98.253 Y109.045 E12.1068
G1 X97.789 Y108.137 E12.15416
G1 X97.571 Y107.588 E12.1816
G1 X97.341 Y106.809 E12.21933
G1 X97.224 Y106.207 E12.24781
G1 X97.136 Y105.278 E12.29115
G1 X97.138 Y104.655 E12.32009
G1 X97.23 Y103.749 E12.36239
G1 X97.357 Y103.125 E12.39197
G1 X97.633 Y102.236 E12.4352
G1 X97.873 Y101.666 E12.46393
G1 X98.305 Y100.866 E12.50616
G1 X98.674 Y100.325 E12.53658
G1 X99.312 Y99.569 E12.58252
M205 X30
G1 F3600 E7.58252
G0 F3000 X100.605 Y101.936
G0 X101.278 Y102.492
G0 X101.069 Y105
G0 X101.169 Y105.874
G0 X101.458 Y106.705
G0 X101.927 Y107.45
G0 X102.55 Y108.073
G0 X103.295 Y108.542
G0 X104.983 Y109.407
G0 X104.983 Y109.507
M205 X8
;TYPE:WALL-OUTER
G1 F3600 E12.58252
G1 F450 X104.105 Y109.418 E12.62351
G1 X103.256 Y109.155 E12.6648
G1 X102.481 Y108.738 E12.70567
G1 X101.801 Y108.175 E12.74668
G1 X101.243 Y107.491 E12.78768
G1 X100.83 Y106.709 E12.82876
G1 X100.575 Y105.861 E12.86989
G1 X100.493 Y104.982 E12.91089
G1 X100.582 Y104.105 E12.95183
G1 X100.845 Y103.256 E12.99312
G1 X101.262 Y102.481 E13.03399
G1 X101.825 Y101.801 E13.075
G1 X102.509 Y101.243 E13.116
G1 X103.291 Y100.83 E13.15708
G1 X104.139 Y100.575 E13.19821
G1 X105.017 Y100.493 E13.23917
G1 X105.895 Y100.582 E13.28016
G1 X106.744 Y100.845 E13.32144
G1 X107.519 Y101.262 E13.36232
G1 X108.199 Y101.825 E13.40332
G1 X108.757 Y102.509 E13.44432
G1 X109.17 Y103.291 E13.4854
G1 X109.425 Y104.139 E13.52653
G1 X109.507 Y105.017 E13.56749
G1 X109.418 Y105.895 E13.60848
G1 X109.155 Y106.744 E13.64976
G1 X108.738 Y107.519 E13.69064
G1 X108.175 Y108.199 E13.73164
G1 X107.491 Y108.757 E13.77264
G1 X106.709 Y109.17 E13.81372
G1 X105.861 Y109.425 E13.85485
G1 X104.983 Y109.507 E13.89581
M205 X30
G0 F3000 X105 Y108.891
M205 X8
G1 F450 X105.866 Y108.793 E13.93629
G1 X106.688 Y108.506 E13.97673
G1 X107.426 Y108.042 E14.01722
G1 X108.042 Y107.426 E14.05768
G1 X108.506 Y106.688 E14.09817
G1 X108.793 Y105.866 E14.13861
G1 X108.891 Y105 E14.17909
G1 X108.793 Y104.134 E14.21958
G1 X108.506 Y103.312 E14.26002
G1 X108.042 Y102.574 E14.30051
G1 X107.426 Y101.958 E14.34097
G1 X106.688 Y101.494 E14.38146
G1 X105.866 Y101.207 E14.4219
G1 X105 Y101.109 E14.46238
G1 X104.134 Y101.207 E14.50286
G1 X103.312 Y101.494 E14.5433
G1 X102.574 Y101.958 E14.58379
G1 X101.958 Y102.574 E14.62426
G1 X101.494 Y103.312 E14.66475
G1 X101.207 Y104.134 E14.70519
G1 X101.109 Y105 E14.74567
G1 X101.207 Y105.866 E14.78615
G1 X101.494 Y106.688 E14.82659
G1 X101.958 Y107.426 E14.86708
G1 X102.574 Y108.042 E14.90754
G1 X103.312 Y108.506 E14.94803
G1 X104.134 Y108.793 E14.98847
G1 X105 Y108.891 E15.02895
M205 X30
G0 F3000 X105.152 Y109.183
G1 F450 X104.883 Y109.182 E15.03691
G1 X104.585 Y109.153 E15.04584
G1 X104.285 Y109.121 E15.05502
G1 X103.936 Y109.041 E15.06574
G1 X103.535 Y108.909 E15.07834
G1 X103.019 Y108.661 E15.09541
G0 F3000 X102.77 Y108.682
M205 X8
;TYPE:SKIN
G1 F450 X101.311 Y107.222 E15.14335
M205 X30
G0 F3000 X101.336 Y106.978
G1 F450 X101.088 Y106.462 E15.16049
G1 X100.958 Y106.063 E15.17316
G1 X100.876 Y105.713 E15.18388
G1 X100.845 Y105.413 E15.19317
G1 X100.814 Y105.114 E15.20217
G1 X100.815 Y104.846 E15.21026
G1 X100.842 Y104.603 E15.21765
G1 X100.867 Y104.36 E15.22508
G1 X100.904 Y104.129 E15.23223
G1 X100.958 Y103.914 E15.23876
G1 X101.025 Y103.712 E15.24508
G1 X101.091 Y103.51 E15.25155
G1 X101.167 Y103.316 E15.25794
G1 X101.25 Y103.131 E15.26376
G1 X101.349 Y102.961 E15.26944
G1 X101.448 Y102.791 E15.2754
G1 X101.551 Y102.626 E15.28151
G1 X101.664 Y102.47 E15.28738
G1 X101.783 Y102.32 E15.29283
G1 X101.911 Y102.18 E15.29837
G1 X102.039 Y102.039 E15.30433
G1 X102.18 Y101.911 E15.31031
G1 X102.32 Y101.783 E15.31585
G1 X102.471 Y101.665 E15.32129
G1 X102.627 Y101.552 E15.32708
G1 X102.79 Y101.447 E15.33319
G1 X102.96 Y101.348 E15.33918
G1 X103.131 Y101.25 E15.34482
G1 X103.317 Y101.167 E15.35064
G1 X103.508 Y101.089 E15.35705
G1 X103.711 Y101.024 E15.36356
G1 X103.914 Y100.958 E15.36988
G1 X104.129 Y100.905 E15.37635
G1 X104.359 Y100.866 E15.38347
G1 X104.603 Y100.841 E15.39091
G1 X104.846 Y100.816 E15.39817
G1 X105.115 Y100.816 E15.40616
G1 X105.413 Y100.845 E15.41509
G1 X105.714 Y100.877 E15.4243
G1 X106.062 Y100.957 E15.43499
G1 X106.463 Y101.089 E15.44753
G1 X106.979 Y101.337 E15.46454
G0 F3000 X107.228 Y101.317
M205 X8
G1 F450 X108.687 Y102.775 E15.51244
M205 X30
G0 F3000 X108.662 Y103.019
G1 F450 X108.91 Y103.536 E15.52961
G1 X109.04 Y103.935 E15.54228
G1 X109.122 Y104.286 E15.55307
G1 X109.153 Y104.585 E15.5623
G1 X109.183 Y104.884 E15.57133
G1 X109.182 Y105.152 E15.57942
G1 X109.156 Y105.395 E15.58677
G1 X109.131 Y105.638 E15.59418
G1 X109.093 Y105.869 E15.60133
G1 X109.039 Y106.084 E15.60789
G1 X108.973 Y106.286 E15.61417
G1 X108.906 Y106.488 E15.6207
G1 X108.831 Y106.681 E15.62708
G1 X108.747 Y106.867 E15.63297
G1 X108.649 Y107.036 E15.6386
G1 X108.55 Y107.206 E15.64461
G1 X108.446 Y107.371 E15.65079
G1 X108.333 Y107.527 E15.65665
G1 X108.215 Y107.677 E15.66209
G1 X108.087 Y107.818 E15.66765
G1 X107.959 Y107.959 E15.67363
G1 X107.819 Y108.087 E15.67961
G1 X107.677 Y108.215 E15.68518
G1 X107.527 Y108.333 E15.69056
G1 X107.37 Y108.445 E15.69636
G1 X107.207 Y108.551 E15.70252
G1 X107.037 Y108.649 E15.70851
G1 X106.866 Y108.747 E15.71415
G1 X106.68 Y108.83 E15.71998
G1 X106.489 Y108.907 E15.72637
G1 X106.286 Y108.973 E15.73292
G1 X106.084 Y109.04 E15.73922
G1 X105.868 Y109.093 E15.74569
G1 X105.639 Y109.132 E15.75278
G1 X105.395 Y109.157 E15.76022
