;FLAVOR:RepRap
;TIME:2537
;Filament used: 1.04025m
;Layer height: 0.2
;Generated with Cura_SteamEngine 2.6.2
M190 S60
M104 S210
M109 S210
G21 ;metric values
G90 ;absolute positioning
M82 ;set extruder to absolute mode
M107 ;start with the fan off
G28 X0 Y0 ;move X/Y to min endstops
G28 Z0 ;move Z to min endstops
G0 X1 Y0 Z0.15 F9000 ; Move in 1mm from edge and up [z] 0.15mm
G92 E0 ;zero the extruded length
G1 F200 E3 ;extrude 3mm of feed stock
G92 E0 ;zero the extruded length again
G1 F9000
M117 Printing...
G5
;LAYER_COUNT:45
;LAYER:0
M107
M205 X30
G0 F3000 X88.727 Y79.335 Z0.3
M205 X8
;TYPE:SKIRT
G1 F450 X89.235 Y78.796 E0.0344
G1 X89.572 Y78.49 E0.05555
G1 X90.021 Y78.129 E0.0823
G1 X90.977 Y77.454 E0.13666
G1 X91.588 Y77.089 E0.16972
G1 X92.312 Y76.727 E0.20732
G1 X92.851 Y76.498 E0.23452
G1 X93.653 Y76.215 E0.27402
G1 X94.24 Y76.05 E0.30234
G1 X95.058 Y75.876 E0.34119
G1 X95.651 Y75.789 E0.36902
G1 X96.501 Y75.719 E0.40864
G1 X97.105 Y75.708 E0.4367
G1 X97.93 Y75.746 E0.47506
G1 X98.67 Y75.839 E0.5097
G1 X99.908 Y76.096 E0.56843
G1 X100.636 Y76.31 E0.60367
G1 X101.435 Y76.616 E0.64341
G1 X101.98 Y76.865 E0.67124
G1 X102.702 Y77.253 E0.70932
G1 X103.2 Y77.562 E0.73654
G1 X103.877 Y78.043 E0.77511
G1 X104.291 Y78.374 E0.79973
G1 X107.763 Y81.483 E1.0162
G1 X111.95 Y84.895 E1.26708
G1 X116.307 Y88.051 E1.51696
G1 X120.851 Y90.967 E1.76774
G1 X125.588 Y93.641 E2.0204
G1 X128.637 Y95.219 E2.17986
G1 X129.162 Y95.536 E2.20835
G1 X129.42 Y95.728 E2.22328
G1 X130.665 Y96.727 E2.29743
G1 X131.204 Y97.235 E2.33183
G1 X131.51 Y97.572 E2.35297
G1 X131.871 Y98.021 E2.37973
G1 X132.546 Y98.977 E2.43409
G1 X132.911 Y99.588 E2.46715
G1 X133.273 Y100.312 E2.50474
G1 X133.501 Y100.849 E2.53184
G1 X133.784 Y101.65 E2.5713
G1 X133.95 Y102.239 E2.59972
G1 X134.124 Y103.057 E2.63857
G1 X134.211 Y103.65 E2.66641
G1 X134.281 Y104.5 E2.70602
G1 X134.292 Y105.103 E2.73403
G1 X134.254 Y105.929 E2.77244
G1 X134.161 Y106.67 E2.80713
G1 X133.904 Y107.908 E2.86586
G1 X133.692 Y108.632 E2.9009
G1 X133.389 Y109.425 E2.94033
G1 X133.138 Y109.973 E2.96832
G1 X132.747 Y110.701 E3.00671
G1 X132.272 Y111.42 E3.04673
G1 X131.273 Y112.665 E3.12087
G1 X130.765 Y113.204 E3.15528
G1 X130.428 Y113.51 E3.17642
G1 X129.979 Y113.871 E3.20318
G1 X129.023 Y114.546 E3.25754
G1 X128.412 Y114.911 E3.29059
G1 X127.688 Y115.273 E3.32819
G1 X127.149 Y115.502 E3.35539
G1 X126.347 Y115.785 E3.39489
G1 X125.76 Y115.95 E3.42322
G1 X124.942 Y116.124 E3.46206
G1 X124.349 Y116.211 E3.4899
G1 X123.499 Y116.281 E3.52951
G1 X122.873 Y116.291 E3.55859
G1 X115.956 Y115.94 E3.88029
G1 X110.562 Y115.982 E4.13083
G1 X105.391 Y116.289 E4.37144
G1 X104.873 Y116.291 E4.3955
G1 X97.956 Y115.94 E4.71719
G1 X92.562 Y115.982 E4.96774
G1 X87.391 Y116.289 E5.20834
G1 X86.895 Y116.292 E5.23138
G1 X86.07 Y116.254 E5.26974
G1 X85.33 Y116.161 E5.30438
G1 X84.092 Y115.904 E5.36311
G1 X83.364 Y115.69 E5.39835
G1 X82.565 Y115.384 E5.43809
G1 X82.02 Y115.135 E5.46593
G1 X81.298 Y114.747 E5.504
G1 X80.58 Y114.271 E5.54401
G1 X79.334 Y113.271 E5.61822
G1 X78.881 Y112.857 E5.64672
G1 X78.603 Y112.539 E5.66634
G1 X77.797 Y111.531 E5.72629
G1 X77.375 Y110.906 E5.76131
G1 X76.969 Y110.187 E5.79967
G1 X76.707 Y109.646 E5.82759
G1 X76.393 Y108.874 E5.8663
G1 X76.207 Y108.321 E5.8934
G1 X75.995 Y107.532 E5.93134
G1 X75.848 Y106.675 E5.97173
G1 X75.723 Y105.069 E6.04655
G1 X75.716 Y104.456 E6.07502
G1 X75.754 Y104.055 E6.09373
G1 X75.923 Y102.84 E6.15071
G1 X76.047 Y102.239 E6.17921
G1 X76.17 Y101.856 E6.1979
G1 X76.729 Y100.344 E6.27277
G1 X76.979 Y99.783 E6.3013
G1 X77.189 Y99.423 E6.32066
G1 X80.197 Y94.761 E6.57836
G1 X82.91 Y90.102 E6.82878
G1 X85.375 Y85.258 E7.08123
G1 X86.159 Y83.524 E7.16962
G1 X86.223 Y83.387 E7.17664
G1 X87.175 Y81.45 E7.27689
G1 X87.481 Y80.919 E7.30535
G1 X87.728 Y80.58 E7.32484
G1 X88.727 Y79.335 E7.39898
M205 X30
G0 F3000 X89.024 Y79.573
M205 X8
G1 F450 X89.49 Y79.077 E7.43059
G1 X89.827 Y78.771 E7.45173
G1 X90.241 Y78.44 E7.47635
G1 X91.197 Y77.765 E7.53071
G1 X91.758 Y77.429 E7.56108
G1 X92.482 Y77.067 E7.59868
G1 X92.977 Y76.857 E7.62365
G1 X93.779 Y76.574 E7.66316
G1 X94.319 Y76.422 E7.68921
G1 X95.137 Y76.248 E7.72806
G1 X95.683 Y76.168 E7.75369
G1 X96.533 Y76.098 E7.7933
G1 X97.087 Y76.088 E7.81904
G1 X97.912 Y76.126 E7.8574
G1 X98.593 Y76.211 E7.88928
G1 X99.831 Y76.468 E7.948
G1 X100.5 Y76.664 E7.98038
G1 X101.299 Y76.97 E8.02012
G1 X101.8 Y77.2 E8.04573
G1 X102.522 Y77.588 E8.0838
G1 X102.98 Y77.872 E8.10883
G1 X103.657 Y78.353 E8.14741
G1 X104.038 Y78.658 E8.17007
G1 X107.502 Y81.761 E8.38608
G1 X111.717 Y85.195 E8.63861
G1 X116.101 Y88.371 E8.89006
G1 X120.657 Y91.294 E9.14148
G1 X125.397 Y93.97 E9.39431
G1 X128.462 Y95.556 E9.5546
G1 X129.182 Y96.025 E9.59451
G1 X130.427 Y97.024 E9.66865
G1 X130.923 Y97.49 E9.70026
G1 X131.229 Y97.827 E9.72141
G1 X131.56 Y98.241 E9.74603
G1 X132.235 Y99.197 E9.80038
G1 X132.571 Y99.758 E9.83076
G1 X132.933 Y100.482 E9.86835
G1 X133.143 Y100.976 E9.89329
G1 X133.426 Y101.777 E9.93274
G1 X133.578 Y102.318 E9.95885
G1 X133.752 Y103.136 E9.99769
G1 X133.832 Y103.682 E10.02332
G1 X133.902 Y104.532 E10.06294
G1 X133.912 Y105.086 E10.08867
G1 X133.874 Y105.912 E10.12708
G1 X133.789 Y106.593 E10.15895
G1 X133.532 Y107.831 E10.21768
G1 X133.337 Y108.496 E10.24987
G1 X133.034 Y109.289 E10.2893
G1 X132.804 Y109.793 E10.31503
G1 X132.413 Y110.521 E10.35342
G1 X131.975 Y111.182 E10.39025
G1 X130.976 Y112.427 E10.46439
G1 X130.51 Y112.923 E10.496
G1 X130.173 Y113.229 E10.51714
G1 X129.759 Y113.56 E10.54176
G1 X128.803 Y114.235 E10.59612
G1 X128.242 Y114.571 E10.62649
G1 X127.518 Y114.933 E10.66409
G1 X127.023 Y115.143 E10.68907
G1 X126.221 Y115.426 E10.72857
G1 X125.681 Y115.578 E10.75462
G1 X124.863 Y115.752 E10.79347
G1 X124.317 Y115.832 E10.8191
G1 X123.467 Y115.902 E10.85871
G1 X122.893 Y115.911 E10.88538
G1 X115.973 Y115.56 E11.20721
G1 X110.538 Y115.602 E11.45966
G1 X105.369 Y115.909 E11.70017
G1 X104.893 Y115.911 E11.72228
G1 X97.973 Y115.56 E12.04411
G1 X92.538 Y115.602 E12.29657
G1 X87.369 Y115.909 E12.53708
G1 X86.913 Y115.912 E12.55826
G1 X86.088 Y115.874 E12.59662
G1 X85.407 Y115.789 E12.62849
G1 X84.169 Y115.532 E12.68722
G1 X83.5 Y115.336 E12.7196
G1 X82.701 Y115.03 E12.75934
G1 X82.2 Y114.8 E12.78495
G1 X81.478 Y114.412 E12.82302
G1 X80.818 Y113.975 E12.85979
G1 X79.572 Y112.975 E12.93399
G1 X79.139 Y112.576 E12.96134
G1 X78.9 Y112.302 E12.97823
G1 X78.094 Y111.294 E13.03818
G1 X77.706 Y110.719 E13.0704
G1 X77.3 Y110 E13.10875
G1 X77.059 Y109.502 E13.13444
G1 X76.745 Y108.73 E13.17315
G1 X76.574 Y108.223 E13.19801
G1 X76.362 Y107.434 E13.23595
G1 X76.227 Y106.646 E13.27309
G1 X76.102 Y105.04 E13.34791
G1 X76.096 Y104.452 E13.37522
G1 X76.13 Y104.107 E13.39132
G1 X76.299 Y102.892 E13.4483
G1 X76.42 Y102.317 E13.47559
G1 X76.527 Y101.987 E13.49171
G1 X77.086 Y100.475 E13.56658
G1 X77.327 Y99.939 E13.59388
G1 X77.509 Y99.629 E13.61058
G1 X80.51 Y94.979 E13.86763
G1 X83.249 Y90.275 E14.12046
G1 X85.716 Y85.426 E14.37316
G1 X86.505 Y83.681 E14.46211
G1 X86.564 Y83.555 E14.46857
G1 X87.516 Y81.618 E14.56882
G1 X87.811 Y81.109 E14.59615
G1 X88.025 Y80.818 E14.61293
G1 X89.024 Y79.573 E14.68707
M205 X30
G0 F3000 X89.32 Y79.811
M205 X8
G1 F450 X89.746 Y79.359 E14.71592
G1 X90.083 Y79.053 E14.73706
G1 X90.46 Y78.75 E14.75953
G1 X91.416 Y78.075 E14.81388
G1 X91.928 Y77.769 E14.84159
G1 X92.652 Y77.407 E14.87919
G1 X93.104 Y77.215 E14.902
G1 X93.906 Y76.932 E14.9415
G1 X94.398 Y76.793 E14.96524
G1 X95.216 Y76.619 E15.00409
G1 X95.714 Y76.546 E15.02747
G1 X96.564 Y76.476 E15.06708
G1 X97.07 Y76.467 E15.09059
G1 X97.895 Y76.505 E15.12895
G1 X98.516 Y76.583 E15.15802
G1 X99.754 Y76.84 E15.21675
G1 X100.364 Y77.019 E15.24627
G1 X101.163 Y77.325 E15.28601
G1 X101.62 Y77.535 E15.30938
G1 X102.342 Y77.923 E15.34745
G1 X102.76 Y78.182 E15.37029
G1 X103.437 Y78.663 E15.40886
G1 X103.784 Y78.941 E15.42951
G1 X107.256 Y82.05 E15.64598
G1 X111.485 Y85.496 E15.89937
G1 X115.891 Y88.688 E16.15208
G1 X120.447 Y91.612 E16.40353
G1 X125.238 Y94.317 E16.65908
G1 X128.287 Y95.894 E16.81852
G1 X128.944 Y96.321 E16.85491
G1 X130.189 Y97.32 E16.92905
G1 X130.641 Y97.746 E16.9579
G1 X130.947 Y98.083 E16.97905
G1 X131.25 Y98.46 E17.00151
G1 X131.925 Y99.416 E17.05587
G1 X132.231 Y99.928 E17.08357
G1 X132.593 Y100.652 E17.12117
G1 X132.784 Y101.102 E17.14388
G1 X133.067 Y101.903 E17.18334
G1 X133.207 Y102.397 E17.20718
G1 X133.381 Y103.215 E17.24603
G1 X133.454 Y103.713 E17.26941
G1 X133.524 Y104.563 E17.30902
G1 X133.533 Y105.069 E17.33253
G1 X133.495 Y105.895 E17.37093
G1 X133.417 Y106.516 E17.4
G1 X133.16 Y107.754 E17.45873
G1 X132.982 Y108.361 E17.48811
G1 X132.679 Y109.154 E17.52754
G1 X132.469 Y109.613 E17.55099
G1 X132.078 Y110.341 E17.58937
G1 X131.679 Y110.944 E17.62296
G1 X130.68 Y112.189 E17.6971
G1 X130.254 Y112.641 E17.72595
G1 X129.917 Y112.947 E17.74709
G1 X129.54 Y113.25 E17.76956
G1 X128.584 Y113.925 E17.82391
G1 X128.072 Y114.231 E17.85162
G1 X127.348 Y114.593 E17.88922
G1 X126.896 Y114.785 E17.91203
G1 X126.094 Y115.068 E17.95153
G1 X125.602 Y115.207 E17.97527
G1 X124.784 Y115.381 E18.01412
G1 X124.286 Y115.454 E18.0375
G1 X123.436 Y115.524 E18.07711
G1 X122.912 Y115.532 E18.10145
G1 X115.972 Y115.18 E18.42421
G1 X110.531 Y115.222 E18.67694
G1 X105.346 Y115.53 E18.9182
G1 X104.912 Y115.532 E18.93836
G1 X97.972 Y115.18 E19.26112
G1 X92.531 Y115.222 E19.51385
G1 X87.346 Y115.53 E19.75511
G1 X86.93 Y115.533 E19.77443
G1 X86.105 Y115.495 E19.81279
G1 X85.484 Y115.417 E19.84186
G1 X84.246 Y115.16 E19.90059
G1 X83.636 Y114.981 E19.93012
G1 X82.837 Y114.675 E19.96986
G1 X82.38 Y114.465 E19.99322
G1 X81.658 Y114.077 E20.03129
G1 X81.056 Y113.679 E20.06481
G1 X79.81 Y112.679 E20.13902
G1 X79.398 Y112.297 E20.16511
G1 X79.197 Y112.065 E20.17937
G1 X78.391 Y111.057 E20.23932
G1 X78.036 Y110.532 E20.26875
G1 X77.63 Y109.813 E20.30711
G1 X77.411 Y109.359 E20.33052
G1 X77.097 Y108.587 E20.36923
G1 X76.941 Y108.124 E20.39192
G1 X76.729 Y107.335 E20.42987
G1 X76.606 Y106.617 E20.4637
G1 X76.481 Y105.011 E20.53853
G1 X76.477 Y104.449 E20.56463
G1 X76.507 Y104.16 E20.57813
G1 X76.676 Y102.945 E20.6351
G1 X76.792 Y102.395 E20.66121
G1 X76.883 Y102.119 E20.67471
G1 X77.442 Y100.607 E20.74958
G1 X77.674 Y100.096 E20.77565
G1 X77.828 Y99.835 E20.78973
G1 X80.831 Y95.181 E21.04699
G1 X83.591 Y90.44 E21.3018
G1 X86.049 Y85.611 E21.55348
G1 X86.851 Y83.837 E21.6439
G1 X86.905 Y83.723 E21.64976
G1 X87.857 Y81.786 E21.75001
G1 X88.14 Y81.3 E21.77613
G1 X88.321 Y81.056 E21.79024
G1 X89.32 Y79.811 E21.86439
M205 X30
G0 F3000 X89.617 Y80.049
M205 X8
G1 F450 X90.001 Y79.64 E21.89044
G1 X90.338 Y79.334 E21.91159
G1 X90.679 Y79.061 E21.93188
G1 X91.635 Y78.386 E21.98623
G1 X92.097 Y78.109 E22.01125
G1 X92.821 Y77.747 E22.04885
G1 X93.23 Y77.573 E22.0695
G1 X94.032 Y77.29 E22.109
G1 X94.477 Y77.165 E22.13047
G1 X95.295 Y76.991 E22.16931
G1 X95.745 Y76.925 E22.19044
G1 X96.595 Y76.855 E22.23005
G1 X97.052 Y76.847 E22.25128
G1 X97.877 Y76.885 E22.28964
G1 X98.439 Y76.956 E22.31595
G1 X99.677 Y77.213 E22.37468
G1 X100.228 Y77.374 E22.40134
G1 X101.027 Y77.68 E22.44108
G1 X101.44 Y77.869 E22.46218
G1 X102.162 Y78.257 E22.50025
G1 X102.54 Y78.492 E22.52092
G1 X103.217 Y78.973 E22.5595
G1 X103.531 Y79.224 E22.57817
G1 X107.008 Y82.338 E22.79497
G1 X111.264 Y85.806 E23.04997
G1 X115.662 Y88.992 E23.30222
G1 X120.266 Y91.946 E23.55629
G1 X125.036 Y94.639 E23.81072
G1 X128.113 Y96.231 E23.97164
G1 X128.706 Y96.618 E24.00453
G1 X129.951 Y97.617 E24.07867
G1 X130.36 Y98.001 E24.10473
G1 X130.666 Y98.338 E24.12587
G1 X130.939 Y98.679 E24.14616
G1 X131.614 Y99.635 E24.20052
G1 X131.891 Y100.097 E24.22554
G1 X132.253 Y100.821 E24.26313
G1 X132.426 Y101.229 E24.28372
G1 X132.709 Y102.03 E24.32318
G1 X132.835 Y102.476 E24.3447
G1 X133.009 Y103.294 E24.38355
G1 X133.075 Y103.744 E24.40467
G1 X133.145 Y104.594 E24.44429
G1 X133.153 Y105.051 E24.46552
G1 X133.115 Y105.877 E24.50392
G1 X133.044 Y106.439 E24.53023
G1 X132.787 Y107.677 E24.58896
G1 X132.627 Y108.225 E24.61548
G1 X132.324 Y109.018 E24.65491
G1 X132.134 Y109.433 E24.67611
G1 X131.743 Y110.161 E24.71449
G1 X131.382 Y110.706 E24.74486
G1 X130.383 Y111.951 E24.819
G1 X129.999 Y112.36 E24.84506
G1 X129.662 Y112.666 E24.8662
G1 X129.321 Y112.939 E24.88649
G1 X128.365 Y113.614 E24.94084
G1 X127.903 Y113.891 E24.96587
G1 X127.179 Y114.253 E25.00346
G1 X126.77 Y114.427 E25.02411
G1 X125.968 Y114.71 E25.06361
G1 X125.523 Y114.835 E25.08508
G1 X124.705 Y115.009 E25.12392
G1 X124.255 Y115.075 E25.14505
G1 X123.405 Y115.145 E25.18466
G1 X122.931 Y115.152 E25.20668
G1 X115.988 Y114.8 E25.52958
G1 X110.525 Y114.842 E25.78333
G1 X105.324 Y115.151 E26.02534
G1 X104.931 Y115.152 E26.04359
G1 X97.988 Y114.8 E26.36649
G1 X92.525 Y114.842 E26.62024
G1 X87.324 Y115.151 E26.86224
G1 X86.948 Y115.153 E26.87971
G1 X86.123 Y115.115 E26.91807
G1 X85.561 Y115.044 E26.94438
G1 X84.323 Y114.787 E27.00311
G1 X83.772 Y114.626 E27.02977
G1 X82.973 Y114.32 E27.06951
G1 X82.56 Y114.131 E27.09061
G1 X81.838 Y113.743 E27.12868
G1 X81.293 Y113.382 E27.15904
G1 X80.047 Y112.382 E27.23325
G1 X79.494 Y111.827 E27.26964
G1 X78.688 Y110.819 E27.32959
G1 X78.367 Y110.345 E27.35618
G1 X77.961 Y109.626 E27.39453
G1 X77.763 Y109.216 E27.41568
G1 X77.449 Y108.444 E27.45439
G1 X77.308 Y108.025 E27.47492
G1 X77.096 Y107.236 E27.51287
G1 X76.985 Y106.587 E27.54345
G1 X76.86 Y104.981 E27.61827
G1 X76.883 Y104.212 E27.654
G1 X77.052 Y102.997 E27.71098
G1 X77.24 Y102.251 E27.74672
G1 X77.799 Y100.739 E27.82159
G1 X78.147 Y100.041 E27.85782
G1 X81.169 Y95.357 E28.11673
G1 X83.911 Y90.648 E28.36983
G1 X86.397 Y85.762 E28.62446
G1 X87.197 Y83.994 E28.7146
G1 X87.246 Y83.89 E28.71994
G1 X88.198 Y81.953 E28.82018
G1 X88.618 Y81.294 E28.85648
G1 X89.617 Y80.049 E28.93062
M205 X30
G0 F3000 X89.913 Y80.287
M205 X8
G1 F450 X90.257 Y79.921 E28.95395
G1 X90.594 Y79.615 E28.9751
G1 X90.898 Y79.371 E28.9932
G1 X91.854 Y78.696 E29.04756
G1 X92.267 Y78.449 E29.06991
G1 X92.991 Y78.087 E29.10751
G1 X93.357 Y77.932 E29.12597
G1 X94.159 Y77.649 E29.16547
G1 X94.556 Y77.537 E29.18463
G1 X95.374 Y77.363 E29.22348
G1 X95.776 Y77.304 E29.24235
G1 X96.626 Y77.234 E29.28196
G1 X97.035 Y77.226 E29.30096
G1 X97.86 Y77.264 E29.33932
G1 X98.361 Y77.328 E29.36278
G1 X99.599 Y77.585 E29.42151
G1 X100.092 Y77.729 E29.44537
G1 X100.891 Y78.035 E29.48511
G1 X101.26 Y78.204 E29.50396
G1 X101.982 Y78.592 E29.54203
G1 X102.32 Y78.802 E29.56051
G1 X102.997 Y79.283 E29.59909
G1 X103.277 Y79.507 E29.61574
G1 X106.761 Y82.627 E29.83297
G1 X111.031 Y86.107 E30.08883
G1 X115.444 Y89.303 E30.34191
G1 X120.072 Y92.273 E30.59733
G1 X124.866 Y94.979 E30.85302
G1 X127.938 Y96.569 E31.01369
G1 X128.468 Y96.914 E31.04306
G1 X129.713 Y97.913 E31.1172
G1 X130.079 Y98.257 E31.14053
G1 X130.385 Y98.594 E31.16168
G1 X130.629 Y98.898 E31.17978
G1 X131.304 Y99.854 E31.23414
G1 X131.551 Y100.267 E31.25649
G1 X131.913 Y100.991 E31.29409
G1 X132.068 Y101.355 E31.31246
G1 X132.351 Y102.156 E31.35192
G1 X132.463 Y102.555 E31.37117
G1 X132.637 Y103.373 E31.41002
G1 X132.696 Y103.775 E31.42889
G1 X132.766 Y104.625 E31.4685
G1 X132.774 Y105.034 E31.4875
G1 X132.736 Y105.86 E31.52591
G1 X132.672 Y106.361 E31.54937
G1 X132.415 Y107.599 E31.6081
G1 X132.272 Y108.09 E31.63185
G1 X131.969 Y108.883 E31.67128
G1 X131.799 Y109.253 E31.69019
G1 X131.408 Y109.981 E31.72858
G1 X131.086 Y110.468 E31.75569
G1 X130.087 Y111.713 E31.82984
G1 X129.743 Y112.079 E31.85317
G1 X129.406 Y112.385 E31.87431
G1 X129.102 Y112.629 E31.89241
G1 X128.146 Y113.304 E31.94677
G1 X127.733 Y113.551 E31.96912
G1 X127.009 Y113.913 E32.00672
G1 X126.643 Y114.068 E32.02518
G1 X125.841 Y114.351 E32.06468
G1 X125.444 Y114.463 E32.08384
G1 X124.626 Y114.637 E32.12269
G1 X124.224 Y114.696 E32.14156
G1 X123.374 Y114.766 E32.18117
G1 X122.95 Y114.773 E32.20087
G1 X115.987 Y114.42 E32.5247
G1 X110.499 Y114.462 E32.77962
G1 X105.301 Y114.771 E33.02148
G1 X104.95 Y114.773 E33.03778
G1 X97.987 Y114.42 E33.36161
G1 X92.499 Y114.462 E33.61652
G1 X87.301 Y114.771 E33.85839
G1 X86.965 Y114.774 E33.87399
G1 X86.14 Y114.736 E33.91235
G1 X85.639 Y114.672 E33.93581
